!!!!SEGMENT: pl-kk--kk-i-94--001-003_lilius-franciszek--missa-brevissima-patrem.krn
!!!cenid: 17xx:2634
!!!COM: Lilius, Franciszek
!!!COM-rismID: pe30020509
!!!CDT: ~1600-1657
!!!CNT: Polish
!!!OPR: Missa Brevissima
!!!OTL: Patrem
!!!OMV: 003
!!!PDT:
!!!AGN: Sacred; Mass
!!!YEC: Copyright 2022 Narodowy Instytut Fryderyka Chopina (https://polishscores.org)
!!!YEM: License CC-BY-4.0 (https://creativecommons.org/licenses/by/4.0)
!!!SMS-siglum: PL-Kk
!!!SMS-shelfmark: Kk.I.94
!!!SMS-variant: Tenor 1mus 2di Chori PL-Kk Kk.I.94:17; Tenor 2d(us) Chori 2di PL-Kk Kk.I.94:20; Baſsus pro Organo. PL-Kk Kk.I.94:41-42
!!!SMS-altvar: Tenor 1mus 2di Chori 1. PL-Kk Kk.I.94:29; Tenor 2di Chori PL-Kk Kk.I.94:32; Pro Organo PL-Kk Kk.I.94:35-36
!!!SMS-shelfwork: 001-003 M
!!!NIFC-rismSourceID: 1001156388
!!!NIFC-rismChildID: 1001156388
!!!NIFC-islandoraID: pl-kk:3195
!!!URL-pdf-islandora: https://repozytorium.nifc.pl/islandora/object/pl-kk:3195/datastream/PDF/view
!!!URL-scan: https://polish.musicsources.pl/pl/lokalizacje/galeria/rekopisy/6153/4 @EN{Scan on Polish Music Sources Website} @PL{Skany w portalu Dziedzictwo Muzyki Polskiej w otwartym dostępie}
!!!IIIF:
!!!ONB-nifc: UWAGA: Części Mszy: 1. Kyrie, 2. Et in terra, 3. Patrem, 4. Sanctus, 5. Agnus Dei.
!!!AIN: 2 alto 2 bass 1 organ 2 soprn 2 tenor
!!!key: G
**kern	**fba	**text	**kern	**text	**kern	**text	**kern	**text	**kern	**text	**kern	**text	**kern	**text	**kern	**text	**kern	**text
*part9	*	*part9	*part8	*part8	*part7	*part7	*part6	*part6	*part5	*part5	*part4	*part4	*part3	*part3	*part2	*part2	*part1	*part1
*staff9	*	*staff9	*staff8	*staff8	*staff7	*staff7	*staff6	*staff6	*staff5	*staff5	*staff4	*staff4	*staff3	*staff3	*staff2	*staff2	*staff1	*staff1
*IGcont	*	*	*	*	*	*	*	*	*	*	*	*	*	*	*	*	*	*
*ICklav	*	*	*ICvox	*	*ICvox	*	*ICvox	*	*ICvox	*	*ICvox	*	*ICvox	*	*ICvox	*	*ICvox	*
*Iorgan	*	*	*Ibass	*	*Itenor	*	*Itenor	*	*Ialto	*	*Ibass	*	*Ialto	*	*Isoprn	*	*Isoprn	*
*I"Baſsus pro Organo.	*	*	*I"Baſs(us) 2 Chori	*	*I"Tenor 2d(us) Chori 2di	*	*I"Tenor 1mus 2di Chori	*	*I"Altus 2di Chori.	*	*I"Baſsus 1mi Chori	*	*I"Altus Primi Chori	*	*I"Cant(us) 2d(us). Chori 1mi.	*	*I"Cant(us) 1 Primi Chori	*
*I'org	*	*	*I'Coro 2: B	*	*I'Coro 2: T 2	*	*I'Coro 2: T 1	*	*I'Coro 2: A	*	*I'Coro 1: B	*	*I'Coro 1: A	*	*I'Coro 1: S 2	*	*I'Coro 1: S 1	*
*clefF4	*	*	*clefF4	*	*clefC4	*	*clefC4	*	*clefC3	*	*clefC4	*	*clefC3	*	*clefC1	*	*clefC1	*
*k[]	*	*	*k[]	*	*k[]	*	*k[]	*	*k[]	*	*k[]	*	*k[]	*	*k[]	*	*k[]	*
*G:	*	*	*G:	*	*G:	*	*G:	*	*G:	*	*G:	*	*G:	*	*G:	*	*G:	*
*M3/2	*	*	*M3/2	*	*M3/2	*	*M3/2	*	*M3/2	*	*M3/2	*	*M3/2	*	*M3/2	*	*M3/2	*
*met(3/2)	*	*	*met(3/2)	*	*met(3/2)	*	*met(3/2)	*	*met(3/2)	*	*met(3/2)	*	*met(3/2)	*	*met(3/2)	*	*met(3/2)	*
=1-	=1-	=1-	=1-	=1-	=1-	=1-	=1-	=1-	=1-	=1-	=1-	=1-	=1-	=1-	=1-	=1-	=1-	=1-
*all\right	*	*	*all\right	*	*	*	*all\right	*	*	*	*all\right	*	*all\right	*	*	*	*all\right	*
*	*	*	*2\right	*	*2\right	*	*	*	*2\right	*	*2\right	*	*2\right	*	*2\right	*	*2\right	*
!LO:TX:b:t=T.	!	!	!	!	!	!	!	!	!	!	!	!	!	!	!	!	!	!
!LO:TX:b:t=Patrem omnipotentem	!	!	!	!	!	!	!	!	!	!	!	!	!	!	!	!	!	!
1D	.	.	1D	Pa-	1F	Pa-	1A	Pa-	1d	Pa-	1d	Pa-	1f	Pa-	1a	Pa-	1dd	Pa-
2D/	.	.	2D/	-trem	2F/	-trem	2A/	-trem	2d\	-trem	2d\	-trem	2f\	-trem	2a\	-trem	2dd\	-trem
=2-	=2-	=2-	=2-	=2-	=2-	=2-	=2-	=2-	=2-	=2-	=2-	=2-	=2-	=2-	=2-	=2-	=2-	=2-
1D	.	.	2D/	om-	2F/	Om-	2A/	Om-	2d\	om-	2d\	Om-	2f\	Om-	2a\	om-	2dd\	Om-
.	.	.	2D/	-ni-	2F/	-ni-	2A/	-ni-	2d\	-ni-	2D/	-ni-	2f\	-ni-	2a\	-ni-	2dd\	-ni-
2AA/	.	.	2AA/	-po-	2C/	-po-	2A/	-po-	2e\	-po-	2A/	-po-	2e\	-po-	2a\	-po-	2cc\	-po-
=3-	=3-	=3-	=3-	=3-	=3-	=3-	=3-	=3-	=3-	=3-	=3-	=3-	=3-	=3-	=3-	=3-	=3-	=3-
!	!	!	!	!	!	!	!	!	!	!	!	!	!	!	!LO:SIC:v:=1g#	!	!	!
1E	#4r	.	1E	-ten-	1E	-ten-	1B	-ten-	1e	-ten-	1E	-ten-	1e	-ten-	1g	-ten-	1b	-ten-
!LO:TX:t=P:problem:kreska pseudotaktowa	!	!	!	!	!	!	!	!	!	!	!LO:TX:t=P:problem:kreska pseudotaktowa	!	!	!	!	!	!LO:SIC:v:s=2cc#\	!
2AA/	.	.	2AA/	-tem	2E/	-te(m)	2A/	-tem	2c#i\	-tem	2A/	-tem	2e\	-tem	2a,<\	-te(m)	2cc\	-tem
=4-	=4-	=4-	=4-	=4-	=4-	=4-	=4-	=4-	=4-	=4-	=4-	=4-	=4-	=4-	=4-	=4-	=4-	=4-
*	*	*	*	*	*	*	*2\right	*	*	*	*	*	*	*	*	*	*	*
2FF/	.	.	2FF/	fac-	2A/	Fac-	2c\	Fac-	2f\	fac-	2A/	fac-	2f\	fac-	2a\	Fac-	2cc\	fac-
2FF/	.	.	2FF/	-to-	2A/	-to-	2c\	-to-	2f\	-to-	2F/	-to-	2f\	-to-	2a\	-to-	2cc\	-to-
2FF/	.	.	2FF/	-rem	2A/	-re(m)	2c\	-rem	2f\	-rem	2A/	-rem	2f\	-rem	2cc\	-re(m)	2cc\	-rem
=5-	=5-	=5-	=5-	=5-	=5-	=5-	=5-	=5-	=5-	=5-	=5-	=5-	=5-	=5-	=5-	=5-	=5-	=5-
1C	.	.	2C/	cae-	2G/	cae-	2c\	Cae-	2e\	cae-	2c\	Cae-	2g\	Cae-	2cc\	Cae-	2ee\	Cae-
.	.	.	2C/	-li	2.G/	-li	2G/	-li	2cny\	-li	2c\	-li	2e\	-li	2g/	-li	2ee\	-li
*	*	*	*	*	*	*	*	*	*	*	*	*	*col	*	*	*	*	*
2GG/	.	.	2GG/	et	.	.	2G/	et	2d\	et	2B\	et	1g	et	2b\	&	2dd\	et
.	.	.	.	.	4D/	et	.	.	.	.	.	.	.	.	.	.	.	.
=6-	=6-	=6-	=6-	=6-	=6-	=6-	=6-	=6-	=6-	=6-	=6-	=6-	=6-	=6-	=6-	=6-	=6-	=6-
!LO:TX:t=P:problem:kreska pseudotaktowa	!	!	!	!	!	!	!	!	!	!	!	!	!	!	!LO:TX:t=P:problem:kreska pseudotaktowa	!	!	!
1.D	43	.	1.D	ter-	4D/	ter-	1A	ter-	1.d	ter-	1d	ter-	.	.	1.a	ter-	1.dd	ter-
.	.	.	.	.	4E/	.	.	.	.	.	.	.	.	.	.	.	.	.
!	!	!	!	!	!LO:SIC:v:s=4F#/	!	!	!	!	!	!	!	!	!	!	!	!	!
.	.	.	.	.	4F/	.	.	.	.	.	.	.	1f#X	ter-	.	.	.	.
.	.	.	.	.	4G/	.	.	.	.	.	.	.	.	.	.	.	.	.
!	!	!	!	!	!	!	!	!	!	!	!LO:TX:t=P:problem:kreska pseudotaktowa	!	!	!	!	!	!	!
.	.	.	.	.	2A/	.	2d\	.	.	.	2D/	.	.	.	.	.	.	.
*	*	*	*	*	*	*	*	*	*	*	*	*	*Xcol	*	*	*	*	*
=7-	=7-	=7-	=7-	=7-	=7-	=7-	=7-	=7-	=7-	=7-	=7-	=7-	=7-	=7-	=7-	=7-	=7-	=7-
2GG/	.	.	1GG	-rae	1G	-rae	1B	-rae	1d	-rae	2G/	-rae	2g\	-rae	2b,<\	-rae	2dd\	-rae
*clefC4	*	*	*	*	*	*	*	*	*	*	*	*	*	*	*	*	*	*
!LO:TX:b:t=a 4	!	!	!	!	!	!	!	!	!	!	!	!	!	!	!	!	!	!
2G/	.	.	.	.	.	.	.	.	.	.	2G/	Vi-	2g\	Vi-	2b\	vi-	2dd\	Vi-
2G/	.	.	2r	.	2r	.	2r	.	2r	.	2G/	-ſi-	2g\	-ſi-	2b\	-si-	2dd\	-ſi-
=8-	=8-	=8-	=8-	=8-	=8-	=8-	=8-	=8-	=8-	=8-	=8-	=8-	=8-	=8-	=8-	=8-	=8-	=8-
*2\right	*	*	*	*	*	*	*	*	*	*	*	*	*	*	*	*	*	*
!	!	!	!LO:N:vos=0	!	!LO:N:vis=0	!	!LO:N:vis=0	!	!LO:N:vis=0	!	!	!	!	!	!	!	!	!
2.A\	.	.	0.r	.	0.r	.	0.r	.	0.r	.	2.A\	-bi-	2.e\	-bi-	2.a\	-bi-	2.cc\	-bi-
4A\	.	.	.	.	.	.	.	.	.	.	4A\	-li-	4e\	-li-	4a\	-li-	4cc\	-li-
2B\	6	.	.	.	.	.	.	.	.	.	2B\	-um	2d\	-um	2g/	-um	2dd\	-um
=9-	=9-	=9-	=9-	=9-	=9-	=9-	=9-	=9-	=9-	=9-	=9-	=9-	=9-	=9-	=9-	=9-	=9-	=9-
1c	.	.	.	.	.	.	.	.	.	.	2.c\	om-	2.e\	om-	2.g/	om-	2.cc\	om-
.	.	.	.	.	.	.	.	.	.	.	4c\	-ni-	4e\	-ni-	4g/	-ni-	4cc\	-ni-
!	!	!	!	!	!	!	!	!	!	!	!	!	!	!	!LO:TX:t=P:problem:kreska pseudotaktowa	!	!	!
2c\	.	.	.	.	.	.	.	.	.	.	2c\	-um	2e\	-um	2g/	-um	2cc\	-um
!	!	!	!	!	!	!	!	!	!	!	!LO:LB:g=original	!	!LO:LB:g=original	!	!LO:LB:g=original	!	!	!
=10-	=10-	=10-	=10-	=10-	=10-	=10-	=10-	=10-	=10-	=10-	=10-	=10-	=10-	=10-	=10-	=10-	=10-	=10-
2A\	.	.	1.r	.	1.r	.	1.r	.	1.r	.	4A\	Et	4a\	et	4cc\	et	4ee\	et
.	.	.	.	.	.	.	.	.	.	.	4A\	in-	4e\	in-	4cc\	in-	4ee\	in-
2B\	6	.	.	.	.	.	.	.	.	.	4B\	-Vi-	4g\	-Vi-	4b\	-vi-	4dd\	-Vi-
.	.	.	.	.	.	.	.	.	.	.	4B\	-ſi-	4g\	-ſi-	4b\	-si-	4dd\	-ſi-
!	!	!	!	!	!	!	!	!	!	!	!	!	!	!	!	!	!LO:LB:g=original	!
!LO:TX:t=P:problem:kreska pseudotaktowa	!	!	!	!	!	!	!	!	!	!	!	!	!LO:SIC:v:s=4.f#\	!	!	!	!	!
2d\	#	.	.	.	.	.	.	.	.	.	4.d\	-bi-	4.fny\	-bi-	4.a\	-bi-	4.dd\	-bi-
!	!	!	!	!	!	!	!	!	!	!	!	!	!LO:SIC:v:s=8f#\	!	!	!	!LO:TX:t=P:problem:kreska pseudotaktowa	!
.	.	.	.	.	.	.	.	.	.	.	8d\	-li-	8f\	-li-	8a\	-li-	8dd\	-li-
=11-	=11-	=11-	=11-	=11-	=11-	=11-	=11-	=11-	=11-	=11-	=11-	=11-	=11-	=11-	=11-	=11-	=11-	=11-
*clefF4	*	*	*	*	*	*	*	*	*	*	*	*	*	*	*	*	*	*
!LO:TX:b:t=T.	!	!	!	!	!	!	!	!	!	!	!	!	!	!	!	!	!	!
1G	.	.	2r	.	2r	.	2r	.	2r	.	1G	-um	1g	-um	1b	-um	1dd	-um
.	.	.	2G\	Et	2B\	Et	2d\	et	2g\	Et	.	.	.	.	.	.	.	.
2G\	.	.	2G\	in	2B\	in	2d\	in-	2g\	in	2r	.	2r	.	2r	.	2r	.
!LO:LB:g=original	!	!	!	!	!	!	!	!	!	!	!	!	!	!	!	!	!	!
=12-	=12-	=12-	=12-	=12-	=12-	=12-	=12-	=12-	=12-	=12-	=12-	=12-	=12-	=12-	=12-	=12-	=12-	=12-
*	*	*	*	*	*	*	*col	*	*	*	*	*	*	*	*	*	*	*
!	!	!	!	!	!	!	!	!	!	!	!LO:N:vis=0	!	!LO:N:vis=0	!	!LO:N:vis=0	!	!LO:N:vis=0	!
1G	.	.	1G	V-	1B	u-	1d	-Vi-	1g	u-	0.r	.	0.r	.	0.r	.	0.r	.
!LO:TX:t=P:problem:kreska pseudotaktowa	!	!	!	!	!	!	!	!	!	!	!	!	!	!	!	!	!	!
2E\	.	.	2E\	-num	2G/	-nu(m)	1c\	-ſi-	2g\	-num	.	.	.	.	.	.	.	.
*	*	*	*	*	*	*	*Xcol	*	*	*	*	*	*	*	*	*	*	*
!	!	!	!	!	!LO:LB:g=original	!	!	!	!	!	!	!	!	!	!	!	!	!
=13-	=13-	=13-	=13-	=13-	=13-	=13-	=13-	=13-	=13-	=13-	=13-	=13-	=13-	=13-	=13-	=13-	=13-	=13-
1.D	.	.	1D	Do-	1d	Do-	.	.	1f	Do-	.	.	.	.	.	.	.	.
.	.	.	.	.	.	.	2.B\	-bi-	.	.	.	.	.	.	.	.	.	.
.	.	.	2D/	-mi-	2d\	-mi-	.	.	2f\	-mi-	.	.	.	.	.	.	.	.
.	.	.	.	.	.	.	4B\	-li-	.	.	.	.	.	.	.	.	.	.
!	!	!	!	!	!	!	!LO:LB:g=original	!	!LO:LB:g=original	!	!	!	!	!	!	!	!	!
=14-	=14-	=14-	=14-	=14-	=14-	=14-	=14-	=14-	=14-	=14-	=14-	=14-	=14-	=14-	=14-	=14-	=14-	=14-
2C/	.	.	2C/	-num	2G/	-num	2c\	-um	2e\	-num	2r	.	2r	.	2r	.	2r	.
2AA/	.	.	2AA/	Je-	2A/	Je-	2c\	Je-	2e\	Je-	2A/	Je-	2e\	Je-	2a\	Je-	2cc\	Je-
*	*	*	*	*	*	*	*	*	*	*	*	*	*	*	*col	*	*	*
2AA/	.	.	2AA/	-sum	2E/	-sum	2A\	-ſum	2e\	-su(m)	2A/	-ſum	2e\	-ſum	1a	-ſum	2cc\	-ſum
=15-	=15-	=15-	=15-	=15-	=15-	=15-	=15-	=15-	=15-	=15-	=15-	=15-	=15-	=15-	=15-	=15-	=15-	=15-
1.EE	43	.	1.E	Chri-	4E/	Chri-	1B	Chri-	2.e\	Chri-	1.E	Chri-	1.e	Chri-	.	.	1.b	Chri-
!	!	!	!	!	!LO:SIC:v:s=4F#/	!	!	!	!	!	!	!	!	!	!	!	!	!
.	.	.	.	.	4F/	.	.	.	.	.	.	.	.	.	.	.	.	.
!	!	!	!	!	!LO:SIC:v:s=4G#/	!	!	!	!	!	!	!	!	!	!	!	!	!
.	.	.	.	.	4G/	.	.	.	.	.	.	.	.	.	1g#	Chri-	.	.
.	.	.	.	.	4A/	.	.	.	8d\L	.	.	.	.	.	.	.	.	.
.	.	.	.	.	.	.	.	.	8c\J	.	.	.	.	.	.	.	.	.
.	.	.	.	.	2B\	.	2e\	.	4B/	.	.	.	.	.	.	.	.	.
.	.	.	.	.	.	.	.	.	4e\	.	.	.	.	.	.	.	.	.
=16-	=16-	=16-	=16-	=16-	=16-	=16-	=16-	=16-	=16-	=16-	=16-	=16-	=16-	=16-	=16-	=16-	=16-	=16-
*	*	*	*	*	*	*	*	*	*	*	*	*	*	*	*Xcol	*	*	*
!	!	!	!	!	!	!	!	!	!LO:N:vis=1	!	!	!	!	!	!	!	!	!
1.AA	.	.	1.AA	-stu(m)	1.A	-stum	1.c#X	-ſtum	1.e	-stum	1.A	-ſtum	1.e	-ſtum	1.a	-stu(m)	1.cc#Xi	-ſtum
!	!	!	!LO:LB:g=original	!	!	!	!	!	!	!	!	!	!	!	!	!	!	!
=17-	=17-	=17-	=17-	=17-	=17-	=17-	=17-	=17-	=17-	=17-	=17-	=17-	=17-	=17-	=17-	=17-	=17-	=17-
*clefC4	*	*	*	*	*	*	*	*	*	*	*	*	*	*	*	*	*	*
!	!	!	!LO:N:vis=00	!	!LO:N:vis=00	!	!LO:N:vis=00	!	!LO:N:vis=00	!	!	!	!	!	!	!	!	!
2c\	.	.	00.r	.	00.r	.	00.r	.	00.r	.	2c\	Fi-	1.r	.	1.r	.	2ee\	Fi-
4c\	.	.	.	.	.	.	.	.	.	.	4c\	-li-	.	.	.	.	4ee\	-li-
4B\	.	.	.	.	.	.	.	.	.	.	4B\	-um	.	.	.	.	4dd\	-um
4A/	.	.	.	.	.	.	.	.	.	.	4A/	DE-	.	.	.	.	4ccny\	DE-
4A/	.	.	.	.	.	.	.	.	.	.	4A/	-i	.	.	.	.	4cc\	-i
=18-	=18-	=18-	=18-	=18-	=18-	=18-	=18-	=18-	=18-	=18-	=18-	=18-	=18-	=18-	=18-	=18-	=18-	=18-
1G	.	.	.	.	.	.	.	.	.	.	1G	V-	2g\	Fi-	2dd\	Fi-	1b	U-
.	.	.	.	.	.	.	.	.	.	.	.	.	4g\	-li-	4dd\	-li-	.	.
.	.	.	.	.	.	.	.	.	.	.	.	.	4f\	-um	4dd\	-um	.	.
!LO:TX:t=P:problem:kreska pseudotaktowa	!	!	!	!	!	!	!	!	!	!	!	!	!	!	!	!	!	!
2A/	.	.	.	.	.	.	.	.	.	.	2A/	-ni-	4e\	DE-	4cc\	De-	2a\	-ni-
.	.	.	.	.	.	.	.	.	.	.	.	.	4e\	-i	4cc\	-i	.	.
=19-	=19-	=19-	=19-	=19-	=19-	=19-	=19-	=19-	=19-	=19-	=19-	=19-	=19-	=19-	=19-	=19-	=19-	=19-
1B	.	.	.	.	.	.	.	.	.	.	4B\	-ge-	1d	V-	1b	u-	2dd\	-ge-
.	.	.	.	.	.	.	.	.	.	.	4c\	.	.	.	.	.	.	.
.	.	.	.	.	.	.	.	.	.	.	4d\	.	.	.	.	.	2b\	.
.	.	.	.	.	.	.	.	.	.	.	4B\	.	.	.	.	.	.	.
!	!	!	!	!	!	!	!	!	!	!	!LO:SIC:v:s=2c#\	!	!	!	!	!	!	!
2c#X\	.	.	.	.	.	.	.	.	.	.	2c\	.	2e\	-ni-	2a\	-ni-	2ee\	.
=20-	=20-	=20-	=20-	=20-	=20-	=20-	=20-	=20-	=20-	=20-	=20-	=20-	=20-	=20-	=20-	=20-	=20-	=20-
2d\	.	.	.	.	.	.	.	.	.	.	2d\	.	2f\	-ge-	1a	-ge-	1dd	.
1A	43 #	.	.	.	.	.	.	.	.	.	2.A/	.	2.e\	-ni-	.	.	.	.
!	!	!	!	!	!	!	!	!	!	!	!	!	!	!	!	!	!LO:SIC:v:s=2cc#\	!
.	.	.	.	.	.	.	.	.	.	.	.	.	.	.	2a\	-ni-	2cc\	-ni-
.	.	.	.	.	.	.	.	.	.	.	4A/	-ni-	4e\	-tum	.	.	.	.
=21-	=21-	=21-	=21-	=21-	=21-	=21-	=21-	=21-	=21-	=21-	=21-	=21-	=21-	=21-	=21-	=21-	=21-	=21-
*clefF4	*	*	*	*	*	*	*	*	*	*	*	*	*	*	*	*	*	*
!LO:TX:b:t=Et ex patre	!	!	!	!	!	!	!	!	!	!	!	!	!	!	!	!	!	!
1D	.	.	2r	.	2r	.	2r	.	2r	.	1.D	-tum	1.f#Xi	.	1.a	-tum	1.dd	-tum
!	!	!	!	!	!LO:SIC:v:s=2F#/	!	!	!	!	!	!	!	!	!	!	!	!	!
.	.	.	2D/	et	2F/	Et	2A\	et	2d\	et	.	.	.	.	.	.	.	.
!	!	!	!	!	!LO:SIC:v:s=2F#/	!	!	!	!	!	!	!	!	!	!	!	!	!
2D/	.	.	2D/	ex	2F/	ex	2A\	ex	2d\	ex	.	.	.	.	.	.	.	.
=22-	=22-	=22-	=22-	=22-	=22-	=22-	=22-	=22-	=22-	=22-	=22-	=22-	=22-	=22-	=22-	=22-	=22-	=22-
*	*	*	*	*	*col	*	*	*	*	*	*	*	*	*	*	*	*	*
!	!	!	!	!	!	!	!	!	!	!	!LO:N:vis=00	!	!LO:N:vis=00	!	!LO:N:vis=00	!	!	!
1C	.	.	1C	pa-	1G	Pa-	1cny	Pa-	1e	pa-	00.r	.	00.r	.	00.r	.	1.r	.
2AA/	6	.	2AA/	-tre	1F	-tre	2c\	-tre	2f\	-tre	.	.	.	.	.	.	.	.
=23-	=23-	=23-	=23-	=23-	=23-	=23-	=23-	=23-	=23-	=23-	=23-	=23-	=23-	=23-	=23-	=23-	=23-	=23-
!	!	!	!	!	!	!	!	!	!	!	!	!	!	!	!	!	!LO:N:vis=00	!
1.GG	76	.	1.GG	na-	.	.	1.B-X	Na-	1.g	na-	.	.	.	.	.	.	00.r	.
.	.	.	.	.	1E	na-	.	.	.	.	.	.	.	.	.	.	.	.
=24-	=24-	=24-	=24-	=24-	=24-	=24-	=24-	=24-	=24-	=24-	=24-	=24-	=24-	=24-	=24-	=24-	=24-	=24-
*	*	*	*	*	*Xcol	*	*	*	*	*	*	*	*	*	*	*	*	*
1FF	.	.	2FF/	-tum	1F	-tu(m)	1.A	-tum	2c\	-tum	.	.	.	.	.	.	.	.
.	.	.	2FF/	an-	.	.	.	.	2f\	an-	.	.	.	.	.	.	.	.
!LO:TX:t=P:problem:kreska pseudotaktowa	!	!	!	!	!	!	!	!	!	!	!	!	!	!	!	!	!	!
2F\	.	.	2F\	-te	2A/	an-	.	.	2f\	-te	.	.	.	.	.	.	.	.
=25-	=25-	=25-	=25-	=25-	=25-	=25-	=25-	=25-	=25-	=25-	=25-	=25-	=25-	=25-	=25-	=25-	=25-	=25-
2F\	.	.	2F\	om-	2A/	-te	1c	an-	2.a\	om-	.	.	.	.	.	.	.	.
2.A\	.	.	2.A\	-ni-	2.c\	om-	.	.	.	.	.	.	.	.	.	.	.	.
.	.	.	.	.	.	.	.	.	4a\	-ni-	.	.	.	.	.	.	.	.
!	!	!	!	!	!	!	!	!	!LO:TX:t=P:problem:wykreślony fragment	!	!	!	!	!	!	!	!	!
.	.	.	.	.	.	.	2c\	-te	2e\	-a	.	.	.	.	.	.	.	.
4A\	.	.	4A\	-a	4c\	-ni-	.	.	.	.	.	.	.	.	.	.	.	.
!LO:PB:g=original	!	!	!	!	!	!	!	!	!LO:LB:g=original	!	!	!	!	!	!	!	!	!
=26-	=26-	=26-	=26-	=26-	=26-	=26-	=26-	=26-	=26-	=26-	=26-	=26-	=26-	=26-	=26-	=26-	=26-	=26-
!	!	!	!	!	!	!	!	!	!	!	!LO:N:vis=0	!	!LO:N:vis=0	!	!LO:N:vis=0	!	!	!
2E\	.	.	2E\	sae-	2G/	-a	2.e\	om-	2.g\	Sae-	0.r	.	0.r	.	0.r	.	.	.
2.G\	.	.	2.G\	.	2.B\	Sae-	.	.	.	.	.	.	.	.	.	.	.	.
.	.	.	.	.	.	.	4e\	-ni-	8f\L	.	.	.	.	.	.	.	.	.
.	.	.	.	.	.	.	.	.	8e\J	.	.	.	.	.	.	.	.	.
.	.	.	.	.	.	.	2Bny\	-a	2d\	.	.	.	.	.	.	.	.	.
8F\L	.	.	8F\L	.	8A/L	.	.	.	.	.	.	.	.	.	.	.	.	.
!LO:TX:t=P:problem:kreska pseudotaktowa	!	!	!	!	!	!	!	!	!	!	!	!	!	!	!	!	!	!
8E\J	.	.	8E\J	.	8G/J	.	.	.	.	.	.	.	.	.	.	.	.	.
=27-	=27-	=27-	=27-	=27-	=27-	=27-	=27-	=27-	=27-	=27-	=27-	=27-	=27-	=27-	=27-	=27-	=27-	=27-
!	!	!	!	!	!	!	!	!	!	!	!	!	!	!	!	!	!LO:N:vis=0	!
2.D\	.	.	2.D/	.	1.A	.	2.d\	ſae-	2.f\	.	.	.	.	.	.	.	0.r	.
4E\	.	.	4E\	.	.	.	8c\L	.	8e\L	.	.	.	.	.	.	.	.	.
.	.	.	.	.	.	.	8B\J	.	8d\J	.	.	.	.	.	.	.	.	.
2F\	.	.	2F\	.	.	.	2A\	.	2c/	.	.	.	.	.	.	.	.	.
=28-	=28-	=28-	=28-	=28-	=28-	=28-	=28-	=28-	=28-	=28-	=28-	=28-	=28-	=28-	=28-	=28-	=28-	=28-
2D\	.	.	2D/	.	1A	.	2d\	.	2f\	.	1.r	.	1.r	.	1.r	.	.	.
!LO:TX:t=P:problem:kreska pseudotaktowa	!	!	!	!	!	!	!	!	!	!	!	!	!	!	!	!	!	!
1E	43	.	2.E\	.	.	.	2.B\	.	2.e\	.	.	.	.	.	.	.	.	.
!	!	!	!	!	!LO:TX:t=P:problem:# below	!	!	!	!	!	!	!	!	!	!	!	!	!
.	.	.	.	.	2G#X/	-cu-	.	.	.	.	.	.	.	.	.	.	.	.
.	.	.	4E\	-cu-	.	.	4B\	-cu-	4e\	-cu-	.	.	.	.	.	.	.	.
!	!	!	!	!	!LO:LB:g=original	!	!LO:LB:g=original	!	!	!	!	!	!	!	!	!	!	!
=29-	=29-	=29-	=29-	=29-	=29-	=29-	=29-	=29-	=29-	=29-	=29-	=29-	=29-	=29-	=29-	=29-	=29-	=29-
2AA/	.	.	2AA/	-la	2A/	-la	2c\	-la	1e	-la	2A/	DE-	2a\	DE-	2cc\	De-	2ee\	DE-
4AA/	.	.	2r	.	2r	.	2r	.	.	.	4A/	-um	4a\	-um	4cc\	-u(m)	4ee\	-um
4E\	.	.	.	.	.	.	.	.	.	.	4E/	de	4g\	de	4b\	de	4ee\	de
!	!	!	!	!	!	!	!	!	!	!	!LO:LB:g=original	!	!LO:LB:g=original	!	!	!	!	!
2F\	.	.	2r	.	2r	.	2r	.	2r	.	4F/	DE-	4fny\	DE-	4a\	De-	4cc\	DE-
!	!	!	!	!	!	!	!	!	!	!	!	!	!LO:TX:t=P:problem:kreska pseudotaktowa	!	!LO:TX:t=P:problem:kreska pseudotaktowa	!	!	!
.	.	.	.	.	.	.	.	.	.	.	4F/	-o	4f\	-o	4a\	-o	4cc\	-o
!	!	!	!	!	!	!	!	!	!	!	!	!	!	!	!LO:LB:g=original	!	!LO:LB:g=original	!
=30-	=30-	=30-	=30-	=30-	=30-	=30-	=30-	=30-	=30-	=30-	=30-	=30-	=30-	=30-	=30-	=30-	=30-	=30-
*clefC4	*	*	*	*	*	*	*	*	*	*	*	*	*	*	*	*	*	*
!	!	!	!LO:N:vis=0	!	!	!	!	!	!	!	!	!	!	!	!	!	!	!
2cny\	.	.	1.r	.	1.r	.	1.r	.	1.r	.	2c\	lu-	2e\	lu-	2gny/	lu-	2cc\	lu-
4c\	.	.	.	.	.	.	.	.	.	.	4c\	-men	4e\	-men	4g/	-men	4cc\	-men
4e\	.	.	.	.	.	.	.	.	.	.	4e\	de	4g\	de	4g/	de	4b\	de
2d\	.	.	.	.	.	.	.	.	.	.	4.d\	lu-	4.f#X\	lu-	4.a\	lu-	4.dd\	lu-
.	.	.	.	.	.	.	.	.	.	.	8d\	-mi-	8f#\	-mi-	8a\	-mi-	8dd\	-mi-
=31-	=31-	=31-	=31-	=31-	=31-	=31-	=31-	=31-	=31-	=31-	=31-	=31-	=31-	=31-	=31-	=31-	=31-	=31-
*clefF4	*	*	*	*	*	*	*	*	*	*	*	*	*	*	*	*	*	*
2.G\	.	.	2.G\	De-	2.B\	De-	2.d\	DE-	2.g\	De-	1G	-ne	1g	-ne	1b	-ne	1dd	-ne
4G\	.	.	4G\	-um	4B\	-um	4d\	-um	4g\	-u(m)	.	.	.	.	.	.	.	.
2E\	.	.	4E\	Ve-	4c\	ve-	4e\	ve-	4g\	Ve-	2r	.	2r	.	2r	.	2r	.
.	.	.	4E\	-rum	4c\	-rum	4e\	-rum	4g\	-ru(m)	.	.	.	.	.	.	.	.
=32-	=32-	=32-	=32-	=32-	=32-	=32-	=32-	=32-	=32-	=32-	=32-	=32-	=32-	=32-	=32-	=32-	=32-	=32-
!	!	!	!	!	!	!	!	!	!	!	!	!	!	!	!LO:N:vis=0	!	!LO:N:vis=0	!
2F\	.	.	2F\	de	2A/	de	2c\	de	2f\	de	1.r	.	1.r	.	0.r	.	0.r	.
4F\	.	.	4F\	De-	4A/	De-	4c\	DE-	4f\	De-	.	.	.	.	.	.	.	.
4A\	.	.	4A\	-o	4c\	-o	4c\	-o	4e\	-o	.	.	.	.	.	.	.	.
!LO:TX:t=P:problem:kreska pseudotaktowa	!	!	!	!	!	!	!	!	!	!	!	!	!	!	!	!	!	!
2G\	.	.	2G\	Ve-	2B\	ve-	2d\	ve-	2g\	ve-	.	.	.	.	.	.	.	.
=33-	=33-	=33-	=33-	=33-	=33-	=33-	=33-	=33-	=33-	=33-	=33-	=33-	=33-	=33-	=33-	=33-	=33-	=33-
2C/	.	.	1C	-ro	1c	-ro	1e	-ro	1g	-ro	4.c\	Ge-	4.e\	Ge-	.	.	.	.
.	.	.	.	.	.	.	.	.	.	.	8c\	-ni-	8e\	-ni-	.	.	.	.
*clefC4	*	*	*	*	*	*	*	*	*	*	*	*	*	*	*	*	*	*
4c\	.	.	.	.	.	.	.	.	.	.	4c\	-tum	4e\	-tum	.	.	.	.
4c\	.	.	.	.	.	.	.	.	.	.	4c\	Non	4e\	Non	.	.	.	.
2B\	.	.	2r	.	2r	.	2r	.	2r	.	4B\	fac-	4d\	fac-	.	.	.	.
!	!	!	!	!	!	!	!	!	!	!	!LO:TX:t=P:problem:kreska pseudotaktowa	!	!	!	!	!	!	!
.	.	.	.	.	.	.	.	.	.	.	4B\	-tum	4d\	-tum	.	.	.	.
!LO:LB:g=original	!	!	!	!	!	!	!	!	!	!	!	!	!	!	!	!	!	!
=34-	=34-	=34-	=34-	=34-	=34-	=34-	=34-	=34-	=34-	=34-	=34-	=34-	=34-	=34-	=34-	=34-	=34-	=34-
!	!	!	!LO:N:vis=0	!	!LO:N:vis=0	!	!LO:N:vis=0	!	!LO:N:vis=00	!	!	!	!	!	!	!	!	!
2A\	.	.	0.r	.	0.r	.	0.r	.	0.r	.	4A/	Con-	4c/	Con-	4.a\	Ge-	4.cc\	GE-
.	.	.	.	.	.	.	.	.	.	.	4A/	-ſub-	4c/	-ſub-	.	.	.	.
.	.	.	.	.	.	.	.	.	.	.	.	.	.	.	8a\	-ni-	8cc\	-ni-
4c\	.	.	.	.	.	.	.	.	.	.	4c\	-ſtan-	4e\	-ſtan-	4a\	-tum	4cc\	-tum
4A\	.	.	.	.	.	.	.	.	.	.	4A\	-ti-	4c\	-ti-	4a\	n(on)	4cc\	Non
4.B\	.	.	.	.	.	.	.	.	.	.	4.B\	-a-	4.d\	-a-	4g/	fac-	4b\	fac-
.	.	.	.	.	.	.	.	.	.	.	.	.	.	.	4g/	-tu(m)	4b\	-tum
!LO:TX:t=P:problem:kreska pseudotaktowa	!	!	!	!	!	!	!	!	!	!	!LO:TX:t=P:problem:kreska pseudotaktowa	!	!	!	!	!	!	!
8c\	.	.	.	.	.	.	.	.	.	.	8c\	-lem	8e\	-lem	.	.	.	.
=35-	=35-	=35-	=35-	=35-	=35-	=35-	=35-	=35-	=35-	=35-	=35-	=35-	=35-	=35-	=35-	=35-	=35-	=35-
2d\	.	.	.	.	.	.	.	.	.	.	4d\	Pa-	4.fny\	Pa-	4f/	Con-	4a\	Con-
.	.	.	.	.	.	.	.	.	.	.	8c\L	.	.	.	4f/	-ſub-	4a\	-ſub-
.	.	.	.	.	.	.	.	.	.	.	8B\J	.	16e\LL	.	.	.	.	.
.	.	.	.	.	.	.	.	.	.	.	.	.	16d\JJ	.	.	.	.	.
!	!	!	!	!	!	!	!	!	!	!	!	!	!	!	!LO:SIC:v:s=4a/	!	!	!
4A\	.	.	.	.	.	.	.	.	.	.	4A\	.	4e\	.	4g/	-ſtan-	4cc\	-stan-
4d\	.	.	.	.	.	.	.	.	.	.	4d\	.	4d\	.	4f/	-ti-	4a\	-ti-
!	!	!	!	!	!	!	!	!	!	!	!LO:TX:t=P:problem:kreska pseudotaktowa	!	!	!	!	!	!	!
2G/	.	.	.	.	.	.	.	.	.	.	2G/	.	2d\	.	4g/	-a-	4b\	-a-
.	.	.	.	.	.	.	.	.	.	.	.	.	.	.	4a\	-le(m)	4cc\	-lem
=36-	=36-	=36-	=36-	=36-	=36-	=36-	=36-	=36-	=36-	=36-	=36-	=36-	=36-	=36-	=36-	=36-	=36-	=36-
*clefF4	*	*	*	*	*	*	*	*	*	*	*	*	*	*	*	*	*	*
2G\	.	.	4.G\	Ge-	4.B\	Ge-	1.r	.	1.r	.	1.G	-tri	1g	.	2.b\	Pa-	1dd	Pa-
.	.	.	8G\	-ni-	8B\	-ni-	.	.	.	.	.	.	.	.	.	.	.	.
4G\	.	.	4G\	-tum	4B\	-tum	.	.	.	.	.	.	.	.	.	.	.	.
4G\	.	.	4G\	non	4B\	non	.	.	.	.	.	.	.	.	4g/	.	.	.
!LO:TX:t=P:problem:kreska pseudotaktowa	!	!	!	!	!	!	!	!	!	!	!	!	!	!	!	!	!	!
2F\	.	.	4F\	fac-	4A/	fac-	.	.	.	.	.	.	2d\	.	4a\	.	2dd\	-tri
.	.	.	4F\	-tum	4A/	-tu(m)	.	.	.	.	.	.	.	.	4f/	.	.	.
=37-	=37-	=37-	=37-	=37-	=37-	=37-	=37-	=37-	=37-	=37-	=37-	=37-	=37-	=37-	=37-	=37-	=37-	=37-
!	!	!	!	!	!	!	!	!	!	!	!LO:N:vis=0	!	!	!	!	!	!LO:N:vis=0	!
2E\	.	.	4E\	con-	4Gny/	con-	4.e\	Ge-	4.g\	Ge-	0.r	.	1e	-tri	1.g	-tri	0.r	.
.	.	.	4E\	-sub-	4G/	-ſub-	.	.	.	.	.	.	.	.	.	.	.	.
.	.	.	.	.	.	.	8e\	-ni-	8g\	-ni-	.	.	.	.	.	.	.	.
!	!	!	!	!	!	!	!	!	!LO:LB:g=original	!	!	!	!	!	!	!	!	!
4G\	.	.	4G\	-stan-	4B\	-ſtan-	4e\	-tum	4g\	-tum	.	.	.	.	.	.	.	.
4E\	.	.	4E\	-ti-	4G/	-ti-	4e\	Non	4g\	non	.	.	.	.	.	.	.	.
4.F\	.	.	4.F\	-a-	4.A/	-a-	4d\	fac-	4f\	fac-	.	.	2r	.	.	.	.	.
!	!	!	!	!	!	!	!LO:TX:t=P:problem:kreska pseudotaktowa	!	!	!	!	!	!	!	!	!	!	!
.	.	.	.	.	.	.	4d\	-tum	4f\	-tu(m)	.	.	.	.	.	.	.	.
8G\	.	.	8G\	-lem	8B\	-le(m)	.	.	.	.	.	.	.	.	.	.	.	.
=38-	=38-	=38-	=38-	=38-	=38-	=38-	=38-	=38-	=38-	=38-	=38-	=38-	=38-	=38-	=38-	=38-	=38-	=38-
!	!	!	!	!	!	!	!	!	!	!	!	!	!LO:N:vis=0	!	!LO:N:vis=0	!	!	!
2A\	.	.	2A\	Pa-	2c\	Pa-	4c\	Con-	4e\	con-	.	.	0.r	.	0.r	.	.	.
.	.	.	.	.	.	.	4c\	-ſub-	4e\	-ſub-	.	.	.	.	.	.	.	.
2G\	.	.	2G\	.	2B\	.	4e\	-ſtan-	4g\	-ſtan-	.	.	.	.	.	.	.	.
!	!	!	!	!	!	!	!LO:SIC:v:s=4c\	!	!	!	!	!	!	!	!	!	!	!
.	.	.	.	.	.	.	4B\	-ti-	4e\	-ti-	.	.	.	.	.	.	.	.
!LO:TX:t=P:problem:kreska pseudotaktowa	!	!	!	!	!	!	!	!	!	!	!	!	!	!	!	!	!	!
2F\	.	.	4F\	.	2A\	.	4d\	-a-	4f\	-a-	.	.	.	.	.	.	.	.
.	.	.	4E\	.	.	.	4e\	-le(m)	4g\	-le(m)	.	.	.	.	.	.	.	.
!	!	!	!	!	!LO:LB:g=original	!	!	!	!	!	!	!	!	!	!	!	!	!
=39-	=39-	=39-	=39-	=39-	=39-	=39-	=39-	=39-	=39-	=39-	=39-	=39-	=39-	=39-	=39-	=39-	=39-	=39-
2D/	.	.	2D/	.	1d	.	1f	Pa-	2a\	pa-	1.r	.	.	.	.	.	1.r	.
2BB-X/	.	.	2BB-X/	.	.	.	.	.	1g	.	.	.	.	.	.	.	.	.
2C/	.	.	2C/	.	2c\	.	2e\	.	.	.	.	.	.	.	.	.	.	.
!	!	!	!	!	!	!	!	!	!	!	!	!	!LO:LB:g=original	!	!	!	!	!
=40-	=40-	=40-	=40-	=40-	=40-	=40-	=40-	=40-	=40-	=40-	=40-	=40-	=40-	=40-	=40-	=40-	=40-	=40-
2FF/	.	.	2FF/	tri	2c\	-tri	2f\	-tri	2f\	-tri	2r	.	2r	.	2r	.	2r	.
2AA/	.	.	2AA/	(per)	2A/	per	2c#X\	per	2e\	per	2A/	per	2a\	per	2cc#X\	per	2ee\	per
2AA/	.	.	2AA/	quem	2A/	que(m)	2c#\	quem	2e\	quem	2A/	quem	2a\	quem	2cc#\	que(m)	2ee\	quem
!	!	!	!	!	!	!	!LO:LB:g=original	!	!	!	!LO:LB:g=original	!	!	!	!	!	!	!
=41-	=41-	=41-	=41-	=41-	=41-	=41-	=41-	=41-	=41-	=41-	=41-	=41-	=41-	=41-	=41-	=41-	=41-	=41-
1D	.	.	2.D/	om-	2.F/	om-	2.A\	om-	2.d\	om-	2.D/	om-	2.a\	om-	2.dd\	om-	2.ff\	om-
.	.	.	4D/	-ni-	4F/	-ni-	4A\	-ni-	4d\	-ni-	4D/	-ni-	4a\	-ni-	4dd\	-ni-	4ff\	-ni-
!	!	!	!	!	!	!	!	!	!	!	!	!	!	!	!LO:TX:t=P:problem:kreska pseudotaktowa	!	!	!
2AA/	.	.	2AA/	-a	2c\	-a	2A\	-a	2e\	-a	2A/	-a	1a	-a	2ccny\	-a	2ee\	-a
!	!	!	!LO:LB:g=original	!	!	!	!	!	!	!	!	!	!	!	!LO:PB:g=original	!	!	!
=42-	=42-	=42-	=42-	=42-	=42-	=42-	=42-	=42-	=42-	=42-	=42-	=42-	=42-	=42-	=42-	=42-	=42-	=42-
!LO:TX:t=P:problem:kreska pseudotaktowa	!	!	!	!	!	!	!	!	!	!	!	!	!	!	!	!	!	!
1.E	43	.	1E	fac-	4e\	fa-	1B	fa-	1e	fa-	1E	fa-	.	.	1b	fa-	1ee	fa-
.	.	.	.	.	8d\L	.	.	.	.	.	.	.	.	.	.	.	.	.
.	.	.	.	.	8c\J	.	.	.	.	.	.	.	.	.	.	.	.	.
.	.	.	.	.	2B\	.	.	.	.	.	.	.	2.g#X\i	fa-	.	.	.	.
.	.	.	2E\	-ta	2E/	-cta	2B\	-cta	2e\	-cta	2E/	-cta	.	.	2b\	-cta	2ee\	-cta
.	.	.	.	.	.	.	.	.	.	.	.	.	4g#\	-cta	.	.	.	.
!	!	!	!	!	!	!	!	!	!	!	!	!	!	!	!	!	!LO:LB:g=original	!
=43-	=43-	=43-	=43-	=43-	=43-	=43-	=43-	=43-	=43-	=43-	=43-	=43-	=43-	=43-	=43-	=43-	=43-	=43-
1AA	.	.	1AA	sunt	1E	ſunt	1A	ſunt	1e	Sunt	1A	ſunt	1a	ſunt	1cc#X	ſunt	1ee	ſunt
!	!	!	!	!	!	!	!	!	!	!	!	!	!	!	!LO:SIC:v:s=2ccn\	!	!	!
2FF/	.	.	2FF/	qui	2F/	qui	2A/	qui	2c/	qui	2A/	qui	2a\	qui	2cc#\	Qui	2a\	qui
!LO:LB:g=original	!	!	!	!	!	!	!	!	!	!	!	!	!	!	!	!	!	!
=44-	=44-	=44-	=44-	=44-	=44-	=44-	=44-	=44-	=44-	=44-	=44-	=44-	=44-	=44-	=44-	=44-	=44-	=44-
1FF	.	.	2FF/	p(ro-	2F/	pro-	2A/	pro-	2f\	pro-	2F/	p(ro)-	2a\	p(ro)-	2a\	p(ro)-	2cc\	p(ro)-
.	.	.	2FF/	-p)ter	2.C/	-pter	2A/	-pter	2f\	-pter	2F/	-pter	2f\	-pter	2a\	-pter	2cc\	-pter
!	!	!	!LO:TX:t=P:problem:brak txt nos	!	!	!	!	!	!LO:LB:g=original	!	!	!	!	!	!	!	!	!
2C/	.	.	2C/	[nos]	.	.	2G/	Nos	2e\	nos	2C/	Nos	2gny\	Nos	2ccny\	nos	2ee\	Nos
.	.	.	.	.	4E/	nos	.	.	.	.	.	.	.	.	.	.	.	.
=45-	=45-	=45-	=45-	=45-	=45-	=45-	=45-	=45-	=45-	=45-	=45-	=45-	=45-	=45-	=45-	=45-	=45-	=45-
1GG	.	.	2.GG/	ho-	2.G/	h(o-	2.G/	ho-	2.d\	h(o-	2.G/	ho-	2.g\	ho-	2.b\	ho-	2.dd\	ho-
.	.	.	4GG/	-mi-	4G/	-mi)-	4G/	-mi-	4d\	-mi)-	4G/	-mi-	4g\	-mi-	4b\	-mi-	4dd\	-mi-
2C/	.	.	2C/	-nes	2E/	-nes	2G/	-nes	2c/	-nes	2C/	-nes	2g\	-nes	2cc,<\	-nes	2ee\	-nes
=46-	=46-	=46-	=46-	=46-	=46-	=46-	=46-	=46-	=46-	=46-	=46-	=46-	=46-	=46-	=46-	=46-	=46-	=46-
*clefC4	*	*	*	*	*	*	*	*	*	*	*	*	*	*	*	*	*	*
!	!	!	!LO:N:vis=0	!	!LO:N:vis=0	!	!LO:N:vis=00	!	!LO:N:vis=0	!	!	!	!	!	!	!	!	!
2c\	.	.	0.r	.	0.r	.	0.r	.	0.r	.	2c\	et	2e\	et	2g/	et	2cc\	et
2c\	.	.	.	.	.	.	.	.	.	.	2c\	p(ro)-	2e\	pro-	2g/	p(ro)-	2cc\	pro-
2A\	.	.	.	.	.	.	.	.	.	.	2A\	-pter	2e\	-pter	2a\	-pter	2cc\	-pter
=47-	=47-	=47-	=47-	=47-	=47-	=47-	=47-	=47-	=47-	=47-	=47-	=47-	=47-	=47-	=47-	=47-	=47-	=47-
1d	.	.	.	.	.	.	.	.	.	.	2d\	No-	2f\	No-	2a\	n(o-	2dd\	No-
.	.	.	.	.	.	.	.	.	.	.	2d\	-ſtram	2f\	-ſtram	2a\	-st)ra(m)	2dd\	-ſtram
!LO:TX:t=P:problem:kreska pseudotaktowa	!	!	!	!	!	!	!	!	!	!	!	!	!	!	!	!	!	!
2A\	.	.	.	.	.	.	.	.	.	.	2A\	ſa-	2f\	ſa-	2a\	Sa-	2cc\	ſa-
=48-	=48-	=48-	=48-	=48-	=48-	=48-	=48-	=48-	=48-	=48-	=48-	=48-	=48-	=48-	=48-	=48-	=48-	=48-
2B-X\	.	.	1.r	.	1.r	.	2r	.	1.r	.	2B-X\	.	1f	-lu-	2dd\	.	2b-X\	.
1c	.	.	.	.	.	.	2r	.	.	.	1c	-lu-	.	.	1cc	-lu-	1g	-lu-
.	.	.	.	.	.	.	2cny\	de-	.	.	.	.	2e\	.	.	.	.	.
=49-	=49-	=49-	=49-	=49-	=49-	=49-	=49-	=49-	=49-	=49-	=49-	=49-	=49-	=49-	=49-	=49-	=49-	=49-
*clefF4	*	*	*	*	*	*	*	*	*	*	*	*	*	*	*	*	*	*
2F\	.	.	2F\	des-	2c\	de-	2.A/	-ſcen-	2a\	Deſ-	1.F	-tem	1f	-tem	2cc\	-tem	1a	-tem
2.D/	.	.	2.D/	-cen-	2.d\	-ſcen-	.	.	2.f\	-cen-	.	.	.	.	2r	.	.	.
.	.	.	.	.	.	.	4A/	-dit	.	.	.	.	.	.	.	.	.	.
.	.	.	.	.	.	.	2F/	de	.	.	.	.	2r	.	2r	.	2r	.
4D/	6	.	4D/	-dit	4d\	-dit	.	.	4f\	-dit	.	.	.	.	.	.	.	.
=50-	=50-	=50-	=50-	=50-	=50-	=50-	=50-	=50-	=50-	=50-	=50-	=50-	=50-	=50-	=50-	=50-	=50-	=50-
!	!	!	!	!	!	!	!	!	!	!	!LO:TX:t=P:problem:kreska pseudotaktowa	!	!	!	!	!	!	!
!	!	!	!	!	!	!	!	!	!	!	!LO:N:vis=0	!	!LO:N:vis=0	!	!LO:N:vis=0	!	!LO:N:vis=0	!
2C/	.	.	2C/	de	2A/	de	1A	Cae-	2e\	de	0.r	.	0.r	.	0.r	.	0.r	.
1BB-X	76	.	1BB-X	cae-	1D	cae-	.	.	1d	cae-	.	.	.	.	.	.	.	.
.	.	.	.	.	.	.	2G/	.	.	.	.	.	.	.	.	.	.	.
=51-	=51-	=51-	=51-	=51-	=51-	=51-	=51-	=51-	=51-	=51-	=51-	=51-	=51-	=51-	=51-	=51-	=51-	=51-
!	!	!	!	!	!	!	!	!	!LO:SIC:v:s=1c#	!	!	!	!	!	!	!	!	!
1AA;	#	.	1AA	-lis	1E	-lis	1A	-lis	1c	-lis	.	.	.	.	.	.	.	.
!LO:TX:t=P:problem:kreska pseudotaktowa	!	!	!	!	!LO:LB:g=original	!	!	!	!	!	!	!	!	!	!	!	!	!
2r	.	.	2r	.	2r	.	2r	.	2r	.	.	.	.	.	.	.	.	.
!	!	!	!	!	!	!	!	!	!	!	!	!	!LO:PB:g=original	!	!	!	!	!
=52-	=52-	=52-	=52-	=52-	=52-	=52-	=52-	=52-	=52-	=52-	=52-	=52-	=52-	=52-	=52-	=52-	=52-	=52-
!LO:TX:b:t=Et incarnat(us).	!	!	!	!	!LO:SIC:v:s=2F#/	!	!	!	!	!	!	!	!	!	!	!	!	!
1D	#	.	2D/	Et	2F/	Et	2A/	Et	2d\	Et	2D/	Et	2d\	Et	2f#X/	Et	2a\	Et
!	!	!	!	!	!LO:SIC:v:s=2F#/	!	!	!	!	!	!	!	!	!	!	!	!	!
.	.	.	2D/	in-	2F/	in-	2A/	in-	2d\	in-	2D/	in-	2d\	in-	2f#/	in-	2a\	in-
!	!	!	!	!	!LO:SIC:v:s=2F#/	!	!	!	!	!	!	!	!	!	!	!	!	!
2D/	#	.	2D/	-car-	2F/	-car-	2A/	-car-	2d\	-Car-	2D/	-car-	2d\	-car-	2f#/	-car-	2a\	-car-
!	!	!	!	!	!	!	!LO:LB:g=original	!	!	!	!	!	!	!	!	!	!	!
=53-	=53-	=53-	=53-	=53-	=53-	=53-	=53-	=53-	=53-	=53-	=53-	=53-	=53-	=53-	=53-	=53-	=53-	=53-
!	!	!	!	!	!LO:SIC:v:s=1F#	!	!	!	!	!	!	!	!	!	!	!	!	!
1D	.	.	1D	-na-	1F	-na-	1A	-na-	1d	-na-	1D	-na-	1d	-na-	1f#yX	-na-	1a	-na-
!	!	!	!	!	!LO:SIC:v:s=2D/	!	!	!	!	!	!	!	!	!	!LO:TX:t=P:problem:kreska pseudotaktowa	!	!	!
2GG/	-	.	2GG/	-tus	2E/	-tus	2G/	-tus	2d\	-tus	2G/	-tus	2d\	-tus	2g/	-tus	2b-X\	-tus
!	!	!	!	!	!	!	!	!	!	!	!	!	!	!	!LO:LB:g=original	!	!	!
=54-	=54-	=54-	=54-	=54-	=54-	=54-	=54-	=54-	=54-	=54-	=54-	=54-	=54-	=54-	=54-	=54-	=54-	=54-
1D	.	.	1D	[est]	1F	eſt	1A	eſt	1d	eſt	1.D	eſt	1.d	eſt	1.fny	est	1.a	eſt
2D\	.	.	2D/	de	2A/	de	2A/	de	2f\	de	.	.	.	.	.	.	.	.
!	!	!	!	!	!	!	!	!	!	!	!LO:PB:g=original	!	!	!	!	!	!LO:LB:g=original	!
=55-	=55-	=55-	=55-	=55-	=55-	=55-	=55-	=55-	=55-	=55-	=55-	=55-	=55-	=55-	=55-	=55-	=55-	=55-
!	!	!	!	!	!	!	!	!	!	!	!LO:N:vis=0	!	!LO:N:vis=0	!	!LO:N:vis=0	!	!LO:N:vis=0	!
1G	.	.	1G	spi-	1B	ſpi-	2.d\	Spi-	1g	Spi-	0.r	.	0.r	.	0.r	.	0.r	.
.	.	.	.	.	.	.	4d\	-ri-	.	.	.	.	.	.	.	.	.	.
!LO:TX:t=P:problem:kreska pseudotaktowa	!	!	!	!	!	!	!	!	!	!	!	!	!	!	!	!	!	!
2G\	.	.	2G\	-ri-	2B\	-ri-	2d\	-tu	2g\	-ri-	.	.	.	.	.	.	.	.
!LO:LB:g=original	!	!	!	!	!	!	!	!	!LO:PB:g=original	!	!	!	!	!	!	!	!	!
=56-	=56-	=56-	=56-	=56-	=56-	=56-	=56-	=56-	=56-	=56-	=56-	=56-	=56-	=56-	=56-	=56-	=56-	=56-
2E\	.	.	2E\	-tu	2G/	-tu	1c	San-	2g\	-tu	.	.	.	.	.	.	.	.
1D	.	.	1D	San-	1d	ſan-	.	.	1f	ſan-	.	.	.	.	.	.	.	.
.	.	.	.	.	.	.	2B\	.	.	.	.	.	.	.	.	.	.	.
!	!	!	!LO:LB:g=original	!	!	!	!	!	!	!	!	!	!	!	!	!	!	!
=57-	=57-	=57-	=57-	=57-	=57-	=57-	=57-	=57-	=57-	=57-	=57-	=57-	=57-	=57-	=57-	=57-	=57-	=57-
2C/	.	.	1C	-cto	1G	-cto	1c	-cto	1e	-cto	2r	.	2r	.	2r	.	2r	.
*clefC4	*	*	*	*	*	*	*	*	*	*	*	*	*	*	*	*	*	*
!	!	!	!	!	!	!	!	!	!	!	!	!	!	!	!LO:SIC:v:s=2cc\	!	!	!
2c\	.	.	.	.	.	.	.	.	.	.	2c\	ex	2g\	Ex	2cc#X\	ex	2ee\	ex
!	!	!	!	!	!	!	!	!	!	!	!	!	!	!	!LO:SIC:v:s=2cc\	!	!	!
2A\	.	.	2r	.	2r	.	2r	.	2r	.	2A\	Ma-	2a\	Ma-	2cc#\	Ma-	2ee\	Ma-
=58-	=58-	=58-	=58-	=58-	=58-	=58-	=58-	=58-	=58-	=58-	=58-	=58-	=58-	=58-	=58-	=58-	=58-	=58-
!	!	!	!LO:N:vis=0	!	!LO:N:vis=0	!	!LO:N:vis=00	!	!LO:N:vis=0	!	!	!	!	!	!	!	!	!
1d	.	.	0.r	.	0.r	.	0.r	.	0.r	.	1d	-ri-	2a\	-ri-	1dd	-ri-	1ff	-ri-
.	.	.	.	.	.	.	.	.	.	.	.	.	2f\	-a	.	.	.	.
*	*	*	*	*	*	*	*	*	*	*	*	*	*col	*	*	*	*	*
2f\	6	.	.	.	.	.	.	.	.	.	2f\	-a	1a\	.	2a\	-a	2dd\	-a
=59-	=59-	=59-	=59-	=59-	=59-	=59-	=59-	=59-	=59-	=59-	=59-	=59-	=59-	=59-	=59-	=59-	=59-	=59-
1e	43	.	.	.	.	.	.	.	.	.	1e	Vir-	.	.	1b	Vir-	1ee	Vir-
*	*	*	*	*	*	*	*	*	*	*	*	*	*Xcol	*	*	*	*	*
.	.	.	.	.	.	.	.	.	.	.	.	.	2.g#X\i	Vir-	.	.	.	.
2e\	.	.	.	.	.	.	.	.	.	.	2e\	-gi-	.	.	2b\	-gi-	2ee\	-gi-
.	.	.	.	.	.	.	.	.	.	.	.	.	4g#\	-gi-	.	.	.	.
=60-	=60-	=60-	=60-	=60-	=60-	=60-	=60-	=60-	=60-	=60-	=60-	=60-	=60-	=60-	=60-	=60-	=60-	=60-
1A	.	.	2r	.	2r	.	2r	.	2r	.	1A	-ne	1a	-ne	1cc#X	-ne	1ee	-ne
.	.	.	2r	.	2r	.	2r	.	2r	.	.	.	.	.	.	.	.	.
*clefF4	*	*	*	*	*	*	*	*	*	*	*	*	*	*	*	*	*	*
!LO:TX:t=P:problem:kreska pseudotaktowa	!	!	!	!	!	!	!	!	!	!	!	!	!	!	!LO:TX:t=P:problem:brak 2r	!	!	!
2FF/	.	.	2FF/	et	2A/	et	2c\	et	2f\	et	2r	.	2r	.	2ryy	.	2r	.
=61-	=61-	=61-	=61-	=61-	=61-	=61-	=61-	=61-	=61-	=61-	=61-	=61-	=61-	=61-	=61-	=61-	=61-	=61-
*	*	*	*	*	*	*	*col	*	*	*	*	*	*	*	*	*	*	*
!	!	!	!	!	!	!	!	!	!	!	!LO:TX:a:t=3	!	!LO:N:vis=0	!	!LO:N:vis=00	!	!LO:N:vis=0	!
!	!	!	!	!	!	!	!	!	!	!	!LO:N:vis=0	!	!	!	!	!	!	!
1GG	.	.	1GG	ho-	1G	ho-	1B-X	Ho-	1d	ho-	0.r	.	0.r	.	00.r	.	0.r	.
2AA/	.	.	2AA/	-mo	2E/	-mo	1A	-mo	2c#X\i	-mo	.	.	.	.	.	.	.	.
*	*	*	*	*	*	*	*Xcol	*	*	*	*	*	*	*	*	*	*	*
=62-	=62-	=62-	=62-	=62-	=62-	=62-	=62-	=62-	=62-	=62-	=62-	=62-	=62-	=62-	=62-	=62-	=62-	=62-
1.BB-X	76	.	1BB-X	fac-	1D	fac-	.	.	1d	fac-	.	.	.	.	.	.	.	.
.	.	.	.	.	.	.	2.G/	fac-	.	.	.	.	.	.	.	.	.	.
.	.	.	2BB-/	-tus	2D/	-tus	.	.	2d\	-tus	.	.	.	.	.	.	.	.
.	.	.	.	.	.	.	4G/	-tus	.	.	.	.	.	.	.	.	.	.
=63-	=63-	=63-	=63-	=63-	=63-	=63-	=63-	=63-	=63-	=63-	=63-	=63-	=63-	=63-	=63-	=63-	=63-	=63-
!	!	!	!	!	!LO:N:vis=1	!	!	!	!LO:SIC:v:s=1.c#X;	!	!LO:TX:t=P:problem:kreska pseudotaktowa	!	!LO:TX:t=P:problem:kreska pseudotaktowa	!	!	!	!	!
1.AA;;	#	.	1.AA	est	1.E	eſt	1.A;<	eſt	1.cny;;	est	1.r	.	1.r	.	.	.	1.r	.
*clefC3	*	*	*	*	*	*	*	*	*	*	*	*	*	*	*	*	*	*
=64-	=64-	=64-	=64-	=64-	=64-	=64-	=64-	=64-	=64-	=64-	=64-	=64-	=64-	=64-	=64-	=64-	=64-	=64-
!	!	!	!	!	!	!	!	!	!	!	!LO:TX:a:t=4	!	!	!	!	!	!	!
!LO:TX:b:t=Crucifixus	!	!	!LO:N:vis=00	!	!LO:N:vis=00	!	!LO:N:vis=00	!	!LO:N:vis=00	!	!LO:N:vis=00	!	!LO:TX:a:t=1	!	!	!	!	!
1a	.	.	00.r	.	00.r	.	00.r	.	00.r	.	00.r	.	1.r	.	.	.	1a	Cru-
2d\	.	.	.	.	.	.	.	.	.	.	.	.	.	.	.	.	2d/	-ci-
=65-	=65-	=65-	=65-	=65-	=65-	=65-	=65-	=65-	=65-	=65-	=65-	=65-	=65-	=65-	=65-	=65-	=65-	=65-
*^	*	*	*	*	*	*	*	*	*	*	*	*	*	*	*	*	*	*
!	!	!	!	!	!	!	!	!	!	!	!	!	!	!	!	!LO:N:vis=0	!	!	!
1f	1d	.	.	.	.	.	.	.	.	.	.	.	.	1d	Cru-	0.r	.	1f	-fi-
!LO:TX:t=P:problem:kreska pseudotaktowa	!	!	!	!	!	!	!	!	!	!	!	!	!	!	!	!	!	!	!
2f/	2A\	.	.	.	.	.	.	.	.	.	.	.	.	2A/	-ci-	.	.	2f/	-xus
=66-	=66-	=66-	=66-	=66-	=66-	=66-	=66-	=66-	=66-	=66-	=66-	=66-	=66-	=66-	=66-	=66-	=66-	=66-	=66-
2.e/	1c	.	.	.	.	.	.	.	.	.	.	.	.	1c	-fi-	.	.	2.e/	e-
4d/	.	.	.	.	.	.	.	.	.	.	.	.	.	.	.	.	.	4d/	-ti-
4e/	2c\	.	.	.	.	.	.	.	.	.	.	.	.	2c/	-xus	.	.	4e/	-am
!LO:SIC:v:s=4f#/	!	!	!	!	!	!	!	!	!	!	!	!	!	!	!	!	!	!	!
4f/	.	.	.	.	.	.	.	.	.	.	.	.	.	.	.	.	.	4f#X/	pro
=67-	=67-	=67-	=67-	=67-	=67-	=67-	=67-	=67-	=67-	=67-	=67-	=67-	=67-	=67-	=67-	=67-	=67-	=67-	=67-
1.g	4Bny\	.	.	.	.	.	.	.	.	.	.	.	.	4B/	e-	1dd	Cru-	2.g/	no-
.	4A\	.	.	.	.	.	.	.	.	.	.	.	.	4A/	-ti-	.	.	.	.
.	4Bny\	.	.	.	.	.	.	.	.	.	.	.	.	4B/	-am	.	.	.	.
.	4c\	.	.	.	.	.	.	.	.	.	.	.	.	4c/	pro	.	.	8fny/L	.
.	.	.	.	.	.	.	.	.	.	.	.	.	.	.	.	.	.	8e/J	.
.	2d\	.	.	.	.	.	.	.	.	.	.	.	.	2d\	No-	2a\	-ci-	4f/	.
.	.	.	.	.	.	.	.	.	.	.	.	.	.	.	.	.	.	4g/	.
!LO:LB:g=original	!	!	!	!	!	!	!	!	!	!	!	!	!	!	!	!	!	!	!
=68-	=68-	=68-	=68-	=68-	=68-	=68-	=68-	=68-	=68-	=68-	=68-	=68-	=68-	=68-	=68-	=68-	=68-	=68-	=68-
!	!	!	!	!LO:N:vis=00	!	!LO:N:vis=00	!	!LO:N:vis=00	!	!LO:N:vis=00	!	!	!	!	!	!	!	!	!
2A/	1.ryy	.	.	00.r	.	00.r	.	00.r	.	00.r	.	[2A/	Cru-	1e	-bis	1ccny	-fi-	1a	.
*clefC4	*	*	*	*	*	*	*	*	*	*	*	*	*	*	*	*	*	*	*
2A/	.	.	.	.	.	.	.	.	.	.	.	2A/]	.	.	.	.	.	.	.
!	!	!	!	!	!	!	!	!	!	!	!	!LO:TX:t=P:problem:kreska pseudotaktowa	!	!	!	!	!	!	!
2E/	.	.	.	.	.	.	.	.	.	.	.	2E/	-ci-	2r	.	2cc\	-xus	2.g/	.
*v	*v	*	*	*	*	*	*	*	*	*	*	*	*	*	*	*	*	*	*
=69-	=69-	=69-	=69-	=69-	=69-	=69-	=69-	=69-	=69-	=69-	=69-	=69-	=69-	=69-	=69-	=69-	=69-	=69-
1G	.	.	.	.	.	.	.	.	.	.	1G	-fi-	1gny	Cru-	2.b\	e-	.	.
.	.	.	.	.	.	.	.	.	.	.	.	.	.	.	.	.	8f/L	.
.	.	.	.	.	.	.	.	.	.	.	.	.	.	.	.	.	8e/J	.
.	.	.	.	.	.	.	.	.	.	.	.	.	.	.	.	.	2d/	.
.	.	.	.	.	.	.	.	.	.	.	.	.	.	.	4a\	-ti-	.	.
!LO:TX:t=P:problem:kreska pseudotaktowa	!	!	!	!	!	!	!	!	!	!	!	!	!	!	!	!	!	!
2G/	.	.	.	.	.	.	.	.	.	.	2G/	-xus	2d\	-ci-	4b\	-am	2g/	-bis
.	.	.	.	.	.	.	.	.	.	.	.	.	.	.	4cc\	.	.	.
!	!	!	!	!	!	!	!	!	!	!	!	!	!	!	!	!	!LO:PB:g=original	!
=70-	=70-	=70-	=70-	=70-	=70-	=70-	=70-	=70-	=70-	=70-	=70-	=70-	=70-	=70-	=70-	=70-	=70-	=70-
2.F/	.	.	.	.	.	.	.	.	.	.	2.F/	e-	1f	-fi-	2dd\	pro	2r	.
.	.	.	.	.	.	.	.	.	.	.	.	.	.	.	1a	no-	2dd\	e-
4E/	.	.	.	.	.	.	.	.	.	.	4E/	-ti-	.	.	.	.	.	.
4F/	.	.	.	.	.	.	.	.	.	.	4F/	-am	2f\	-xus	.	.	2a\	-ti-
4G/	.	.	.	.	.	.	.	.	.	.	4G/	.	.	.	.	.	.	.
!	!	!	!	!	!	!	!	!	!	!	!	!	!LO:LB:g=original	!	!	!	!	!
=71-	=71-	=71-	=71-	=71-	=71-	=71-	=71-	=71-	=71-	=71-	=71-	=71-	=71-	=71-	=71-	=71-	=71-	=71-
1A	.	.	.	.	.	.	.	.	.	.	1A	pro	2.e\	e-	1a	-bis	1cc	-am
.	.	.	.	.	.	.	.	.	.	.	.	.	4d\	-ti-	.	.	.	.
!LO:TX:t=P:problem:kreska pseudotaktowa	!	!	!	!	!	!	!	!	!	!	!	!	!	!	!	!	!	!
2A/	.	.	.	.	.	.	.	.	.	.	2A/	No-	4e\	-am	2r	.	2cc\	pro
.	.	.	.	.	.	.	.	.	.	.	.	.	4f\	pro	.	.	.	.
=72-	=72-	=72-	=72-	=72-	=72-	=72-	=72-	=72-	=72-	=72-	=72-	=72-	=72-	=72-	=72-	=72-	=72-	=72-
!	!	!	!LO:N:vis=0	!	!LO:N:vis=00	!	!LO:TX:t=P:problem:brak pauzy	!	!	!	!	!	!	!	!	!	!	!
2.G/	.	.	0.r	.	00.r	.	1.ryy	.	1.r	.	2.G/	-bis	1g	No-	1.r	.	2.bny\	No-
4F/	.	.	.	.	.	.	.	.	.	.	4F/	e-	.	.	.	.	4a\	.
4G/	.	.	.	.	.	.	.	.	.	.	4G/	-ti-	2g\	-bis	.	.	4b\	.
4A/	.	.	.	.	.	.	.	.	.	.	4A/	-am	.	.	.	.	4cc\	.
=73-	=73-	=73-	=73-	=73-	=73-	=73-	=73-	=73-	=73-	=73-	=73-	=73-	=73-	=73-	=73-	=73-	=73-	=73-
!LO:TX:t=P:problem:kreska pseudotaktowa	!	!	!	!	!	!	!	!	!	!	!	!	!	!	!	!	!	!
1.B-X	.	.	.	.	.	.	1.r	.	2r	.	1.B-X	pro	2.d\	e-	2.f/	e-	[<1.dd	.
.	.	.	.	.	.	.	.	.	2r	.	.	.	.	.	.	.	.	.
.	.	.	.	.	.	.	.	.	.	.	.	.	4c\	-ti-	4e/	-ti-	.	.
.	.	.	.	.	.	.	.	.	2d\	Sub	.	.	4d\	-am	4f/	-am	.	.
!	!	!	!	!	!	!	!	!	!	!	!	!	!	!	!LO:TX:t=P:problem:kreska pseudotaktowa	!	!	!
.	.	.	.	.	.	.	.	.	.	.	.	.	4e\	pro	4g/	pro	.	.
!	!	!	!	!	!	!	!	!	!	!	!	!	!	!	!LO:LB:g=original	!	!	!
=74-	=74-	=74-	=74-	=74-	=74-	=74-	=74-	=74-	=74-	=74-	=74-	=74-	=74-	=74-	=74-	=74-	=74-	=74-
1.A	43	.	1.r	.	.	.	2r	.	2.a\	Pon-	1.A	no-	2f\	No-	1.a	no-	1dd]	.
.	.	.	.	.	.	.	2r	.	.	.	.	.	1e	.	.	.	.	.
.	.	.	.	.	.	.	.	.	4a\	-ti-	.	.	.	.	.	.	.	.
!	!	!	!	!	!	!	!	!	!	!	!	!	!	!	!	!	!LO:SIC:v:s=2cc#\	!
.	.	.	.	.	.	.	2A/	Sub	4a\	-o	.	.	.	.	.	.	2cc\	.
.	.	.	.	.	.	.	.	.	4e\	Pi-	.	.	.	.	.	.	.	.
=75-	=75-	=75-	=75-	=75-	=75-	=75-	=75-	=75-	=75-	=75-	=75-	=75-	=75-	=75-	=75-	=75-	=75-	=75-
1D	.	.	2r	.	.	.	2.d\	Pon-	1.f	-la-	1.D	-bis	1.d	-bis	1.a	-bis	1.dd	-bis
.	.	.	2r	.	.	.	.	.	.	.	.	.	.	.	.	.	.	.
.	.	.	.	.	.	.	4d\	-ti-	.	.	.	.	.	.	.	.	.	.
*clefF4	*	*	*	*	*	*	*	*	*	*	*	*	*	*	*	*	*	*
!	!	!	!	!	!	!	!LO:PB:g=original	!	!	!	!	!	!	!	!	!	!	!
2D\	.	.	2D/	sub	.	.	4d\	-o	.	.	.	.	.	.	.	.	.	.
!	!	!	!	!	!	!	!LO:TX:t=P:problem:kreska pseudotaktowa	!	!	!	!	!	!	!	!	!	!	!
.	.	.	.	.	.	.	4A\	Pi-	.	.	.	.	.	.	.	.	.	.
!	!	!	!	!	!	!	!	!	!	!	!LO:LB:g=original	!	!	!	!	!	!	!
=76-	=76-	=76-	=76-	=76-	=76-	=76-	=76-	=76-	=76-	=76-	=76-	=76-	=76-	=76-	=76-	=76-	=76-	=76-
!	!	!	!	!	!	!	!	!	!	!	!LO:N:vis=00	!	!LO:N:vis=00	!	!LO:N:vis=00	!	!LO:N:vis=00	!
2.A\	.	.	2.A\	pon-	2A/	Sub	1.c	-la-	1.e	-to	00.r	.	00.r	.	00.r	.	00.r	.
!	!	!	!	!	!LO:PB:g=original	!	!	!	!	!	!	!	!	!	!	!	!	!
.	.	.	.	.	2.e\	Pon-	.	.	.	.	.	.	.	.	.	.	.	.
4A\	.	.	4A\	-ti-	.	.	.	.	.	.	.	.	.	.	.	.	.	.
4A\	.	.	4A\	-o	.	.	.	.	.	.	.	.	.	.	.	.	.	.
4E\	.	.	4E\	.	4e\	-ti-	.	.	.	.	.	.	.	.	.	.	.	.
=77-	=77-	=77-	=77-	=77-	=77-	=77-	=77-	=77-	=77-	=77-	=77-	=77-	=77-	=77-	=77-	=77-	=77-	=77-
!	!	!	!	!	!	!	!	!	!LO:TX:t=P:problem:brak fragmentu/taktu	!	!	!	!	!	!	!	!	!
1G	.	.	1G	pi-	4e\	-o	1.Bny	-to	1.ryy	.	.	.	.	.	.	.	.	.
.	.	.	.	.	4B\	Pi-	.	.	.	.	.	.	.	.	.	.	.	.
.	.	.	.	.	2d\	-la-	.	.	.	.	.	.	.	.	.	.	.	.
2G\	.	.	2G\	-la-	2d\	-to	.	.	.	.	.	.	.	.	.	.	.	.
=78-	=78-	=78-	=78-	=78-	=78-	=78-	=78-	=78-	=78-	=78-	=78-	=78-	=78-	=78-	=78-	=78-	=78-	=78-
1F	.	.	1F	-to	1A	Paſ-	1c	paſ-	1f	Paſ-	.	.	.	.	.	.	.	.
2F\	.	.	2F\	paſ-	2A/	-sus	2c\	-sus	2f\	-sus	.	.	.	.	.	.	.	.
!	!	!	!	!	!	!	!	!	!LO:LB:g=original	!	!	!	!	!	!	!	!	!
=79-	=79-	=79-	=79-	=79-	=79-	=79-	=79-	=79-	=79-	=79-	=79-	=79-	=79-	=79-	=79-	=79-	=79-	=79-
1C	.	.	1C	-sus	1c	et	1e	et	1g	et	.	.	.	.	.	.	.	.
2D/	.	.	2D/	et	2A/	ſe-	2d\	Se-	2f\	ſe-	.	.	.	.	.	.	.	.
!LO:LB:g=original	!	!	!	!	!	!	!	!	!	!	!	!	!	!	!	!	!	!
=80-	=80-	=80-	=80-	=80-	=80-	=80-	=80-	=80-	=80-	=80-	=80-	=80-	=80-	=80-	=80-	=80-	=80-	=80-
*	*	*	*	*	*col	*	*	*	*	*	*	*	*	*	*	*	*	*
!	!	!	!	!	!	!	!	!	!	!	!LO:N:vis=0	!	!LO:N:vis=0	!	!LO:N:vis=0	!	!LO:N:vis=0	!
1E	.	.	1E	se-	1G	-pul-	1B	-pul-	1e	-pul-	0.r	.	0.r	.	0.r	.	0.r	.
2F\	.	.	2F\	-pul-	1A	.	2A\	.	2d\	.	.	.	.	.	.	.	.	.
=81-	=81-	=81-	=81-	=81-	=81-	=81-	=81-	=81-	=81-	=81-	=81-	=81-	=81-	=81-	=81-	=81-	=81-	=81-
1E	43	.	1E	-tus	.	.	1B	.	1e	.	.	.	.	.	.	.	.	.
!	!	!	!	!	!LO:SIC:v:s=1G#	!	!	!	!	!	!	!	!	!	!	!	!	!
.	.	.	.	.	1G	-tus	.	.	.	.	.	.	.	.	.	.	.	.
2E\	.	.	2E\	est	.	.	2B\	-tus	2e\	-tus	.	.	.	.	.	.	.	.
=82-	=82-	=82-	=82-	=82-	=82-	=82-	=82-	=82-	=82-	=82-	=82-	=82-	=82-	=82-	=82-	=82-	=82-	=82-
1AA	#	.	1AA	.	1A	eſt	1c#X	eſt,	1e	eſt	2A/	Et	2e\	Et	2a\	Et	2cc#X\	Et
*	*	*	*	*	*Xcol	*	*	*	*	*	*	*	*	*	*	*	*	*
.	.	.	.	.	.	.	.	.	.	.	4A/	re-	4e\	re-	4a\	re-	4cc#\	re-
.	.	.	.	.	.	.	.	.	.	.	4A/	-ſur-	4e\	-ſur-	4a\	-ſur-	4cc#\	-ſur-
!LO:TX:b:t=T.	!	!	!	!	!LO:TX:t=P:problem:brak 2r	!	!	!	!LO:N:vis=1	!	!	!	!	!	!	!	!	!
2AA/	.	.	2r	.	2ryy	.	2r	.	2r	.	4A/	-re-	4e\	-re-	4a\	-re-	4cc#i\	-re-
.	.	.	.	.	.	.	.	.	.	.	4A/	-xit	4e\	-xit	4a\	-xit	4cc#\	-xit
*	*	*	*	*	*Xcol	*	*	*	*	*	*	*	*	*	*	*	*	*
=83-	=83-	=83-	=83-	=83-	=83-	=83-	=83-	=83-	=83-	=83-	=83-	=83-	=83-	=83-	=83-	=83-	=83-	=83-
!	!	!	!	!	!LO:SIC:v:s=2F#/	!	!	!	!	!	!	!	!LO:SIC:v:s=2.f#\	!	!	!	!	!
1D	#	.	2D/	Et	2F/	[Et]	2A\	Et	2d\	Et	2.d\	ter-	2.f\	ter-	2.a\	ter-	2.dd\	ter-
!	!	!	!	!	!LO:SIC:v:s=4F#/	!	!	!	!	!	!	!	!	!	!	!	!	!
.	.	.	4D/	re-	4F/	re-	4A\	re-	4d\	re-	.	.	.	.	.	.	.	.
!	!	!	!	!	!LO:SIC:v:s=4F#/	!	!	!	!	!	!	!	!LO:SIC:v:s=4f#\	!	!	!	!	!
.	.	.	4D/	-sur-	4F/	-sur-	4A\	-ſur-	4d\	-sur-	4d\	-ti-	4f\	-ti-	4a\	-ti-	4dd\	-ti-
!LO:TX:t=P:problem:kreska pseudotaktowa	!	!	!	!	!	!	!	!	!	!	!	!	!LO:SIC:v:s=2f#\	!	!	!	!	!
2D/	.	.	4D/	-re-	4A/	-re-	4A\	-re-	4d\	-re-	2d\	-a	2f\	-a	2a\	-a	2dd\	-a
.	.	.	4D/	-xit	4A/	-xit	4d\	-xit	4d\	-xit	.	.	.	.	.	.	.	.
!	!	!	!LO:LB:g=original	!	!	!	!	!	!	!	!	!	!	!	!	!	!	!
=84-	=84-	=84-	=84-	=84-	=84-	=84-	=84-	=84-	=84-	=84-	=84-	=84-	=84-	=84-	=84-	=84-	=84-	=84-
1GG	.	.	2.G\	ter-	2.G/	ter-	2.B\	ter-	2.d\	ter-	2G/	di-	2g\	di-	2b\	di-	2dd\	di-
.	.	.	.	.	.	.	.	.	.	.	2G/	-e	2g\	-e	2b\	-e	2dd\	-e
.	.	.	4G\	-ti-	4G/	-ti-	4B\	-ti-	4d\	-ti-	.	.	.	.	.	.	.	.
2GG/	.	.	2G\	-a	2G/	-a	2d\	-a	2B/	-a	2G/	ſe-	2g\	ſe-	2b\	Se-	2dd\	ſe-
!	!	!	!	!	!	!	!	!	!	!	!	!	!	!	!	!	!LO:LB:g=original	!
=85-	=85-	=85-	=85-	=85-	=85-	=85-	=85-	=85-	=85-	=85-	=85-	=85-	=85-	=85-	=85-	=85-	=85-	=85-
1C	.	.	2C/	di-	2G/	di-	2cny\	di-	2e\	di-	2c\	-cun-	2g\	-cun-	2cc\	-cun-	2ee\	-cun-
.	.	.	2C/	-e	2G/	-e	2c\	-e	2e\	-e	2c\	-dum	2g\	-dum	2cc\	-dum	2ee\	-dum
2C/	.	.	2C/	se-	2E/	ſe-	2c\	ſe-	2g\	Se-	2c\	ſcri-	2g\	ſcri-	2cc\	ſcri-	2ee\	ſcri-
!	!	!	!	!	!LO:LB:g=original	!	!LO:LB:g=original	!	!	!	!	!	!	!	!	!	!	!
=86-	=86-	=86-	=86-	=86-	=86-	=86-	=86-	=86-	=86-	=86-	=86-	=86-	=86-	=86-	=86-	=86-	=86-	=86-
1FF	.	.	2F\	-cun-	2A/	-cun-	2c\	-cun-	2f\	-cun-	1F	-ptu-	1a	-ptu-	1cc	-ptu-	1ff	-ptu-
.	.	.	2F\	-dum	2A/	-dum	2c\	-dum	2f\	-dum	.	.	.	.	.	.	.	.
2FF/	.	.	2F\	scri-	2A/	Scri-	2c\	ſcrip-	2f\	Scrip-	2F/	-ras	2a\	-ras	2cc\	-ras	2ff\	-ras
!	!	!	!	!	!	!	!	!	!LO:LB:g=original	!	!	!	!LO:LB:g=original	!	!	!	!	!
=87-	=87-	=87-	=87-	=87-	=87-	=87-	=87-	=87-	=87-	=87-	=87-	=87-	=87-	=87-	=87-	=87-	=87-	=87-
2BB-X/	.	.	2BB-X/	-p[t]u-	2d\	-ptu-	2B-X\	-tu-	1f	-tu-	1.r	.	1.r	.	1.r	.	1.r	.
*	*	*	*col	*	*	*	*	*	*	*	*	*	*	*	*	*	*	*
!LO:TX:t=P:problem:kreska pseudotaktowa	!	!	!	!	!	!	!	!	!	!	!	!	!	!	!	!	!	!
1C	.	.	1C	.	1c	.	1G	.	.	.	.	.	.	.	.	.	.	.
*	*	*	*Xcol	*	*	*	*	*	*	*	*	*	*	*	*	*	*	*
.	.	.	.	.	.	.	.	.	2e\	.	.	.	.	.	.	.	.	.
=88-	=88-	=88-	=88-	=88-	=88-	=88-	=88-	=88-	=88-	=88-	=88-	=88-	=88-	=88-	=88-	=88-	=88-	=88-
2FF/	.	.	1FF	-ras	1c	-ras	1A	-ras	1f	-ra(s)	2r	.	2r	.	2r	.	2r	.
2FF/	.	.	.	.	.	.	.	.	.	.	2F/	et	2a\	et	2cc\	et	2ff\	et
*clefC4	*	*	*	*	*	*	*	*	*	*	*	*	*	*	*	*	*	*
2c\	.	.	2r	.	2r	.	2r	.	2r	.	2c\	a-	2g\	a-	2cc\	aſ-	2ee\	aſ-
=89-	=89-	=89-	=89-	=89-	=89-	=89-	=89-	=89-	=89-	=89-	=89-	=89-	=89-	=89-	=89-	=89-	=89-	=89-
2d\	.	.	1.r	.	1.r	.	1.r	.	1.r	.	2d\	-ſcen-	2f\	-ſcen-	2a\	-cen-	2dd\	-cen-
4d\	.	.	.	.	.	.	.	.	.	.	4d\	-dit	4f\	-dit	4a\	-dit	4dd\	-dit
4f\	.	.	.	.	.	.	.	.	.	.	4f\	in	4a\	in	4a\	in	4dd\	in
2e\	#	.	.	.	.	.	.	.	.	.	2e\	Cae-	2g#X\	Cae-	2b\	Cae-	2ee\	Cae-
=90-	=90-	=90-	=90-	=90-	=90-	=90-	=90-	=90-	=90-	=90-	=90-	=90-	=90-	=90-	=90-	=90-	=90-	=90-
*clefF4	*	*	*	*	*	*	*	*	*	*	*	*	*	*	*	*	*	*
!	!	!	!	!	!	!	!	!	!	!	!	!	!	!	!LO:TX:t=P:problem:kreska pseudotaktowa	!	!	!
!	!	!	!	!	!	!	!	!	!	!	!	!	!	!	!LO:SIC:v:s=1cc#	!	!	!
2A\	.	.	2A\	se-	2c#\i	ſe-	2e\	Se-	2a\	Se-	1A	-lum	1a	-lum	1cc	-lum	1ee	-lum
2A\	.	.	2A\	-det	2c#\	-det	2e\	-det	2a\	-det	.	.	.	.	.	.	.	.
2D\	.	.	2D/	ad	2A/	ad	2d\	ad	2f\	ad	2r	.	2r	.	2r	.	2r	.
!	!	!	!	!	!	!	!	!	!	!	!	!	!	!	!LO:LB:g=original	!	!	!
=91-	=91-	=91-	=91-	=91-	=91-	=91-	=91-	=91-	=91-	=91-	=91-	=91-	=91-	=91-	=91-	=91-	=91-	=91-
*col	*	*	*	*	*	*	*	*	*	*	*	*	*	*	*	*	*	*
!	!	!	!	!	!	!	!	!	!	!	!LO:N:vis=0	!	!LO:N:vis=0	!	!LO:N:vis=0	!	!LO:N:vis=0	!
1G	.	.	1G	dex-	2.B\	dex-	2.d\	dex-	2.g\	dex-	0.r	.	0.r	.	0.r	.	0.r	.
.	.	.	.	.	4B\	-te-	4d\	-te-	4g\	-te-	.	.	.	.	.	.	.	.
*	*	*	*	*	*col	*	*	*	*col	*	*	*	*	*	*	*	*	*
1F	.	.	4G\	-te-	1A	-ram	2d\	-ram	1a	-ram	.	.	.	.	.	.	.	.
.	6	.	4F\	.	.	.	.	.	.	.	.	.	.	.	.	.	.	.
=92-	=92-	=92-	=92-	=92-	=92-	=92-	=92-	=92-	=92-	=92-	=92-	=92-	=92-	=92-	=92-	=92-	=92-	=92-
.	7	.	2F\	-ram	.	.	1d	Pa-	.	.	.	.	.	.	.	.	.	.
*	*	*	*col	*	*Xcol	*	*	*	*	*	*	*	*	*	*	*	*	*
1E	6	.	1E	pa-	2B\	Pa-	.	.	1g	Pat-	.	.	.	.	.	.	.	.
.	.	.	.	.	2G/	.	2c#X\	.	.	.	.	.	.	.	.	.	.	.
*Xcol	*	*	*Xcol	*	*	*	*	*	*Xcol	*	*	*	*	*	*	*	*	*
!LO:LB:g=original	!	!	!	!	!	!	!	!	!	!	!	!	!	!	!	!	!	!
=93-	=93-	=93-	=93-	=93-	=93-	=93-	=93-	=93-	=93-	=93-	=93-	=93-	=93-	=93-	=93-	=93-	=93-	=93-
2D\	.	.	1D	-tris	1A	-tris	1d	-tris	1f	-ris	2d\	et	2a\	Et	2dd\	Et	2ff\	Et
2D\	.	.	.	.	.	.	.	.	.	.	4.d\	i-	4.a\	i-	4.dd\	i-	4.ff\	i-
.	.	.	.	.	.	.	.	.	.	.	8d\	-te-	8a\	-te-	8dd\	-te-	8ff\	-te-
!	!	!	!	!	!	!	!	!	!	!	!LO:LB:g=original	!	!	!	!	!	!	!
2A\	.	.	2r	.	2r	.	2r	.	2r	.	4A/	-rum	4a\	-rum	4cc\	-rum	4ee\	-rum
!	!	!	!	!	!	!	!	!	!	!	!LO:TX:t=P:problem:kreska pseudotaktowa	!	!	!	!	!	!	!
.	.	.	.	.	.	.	.	.	.	.	4A/	ven-	4a\	Ven-	4cc\	ven-	4ee\	ven-
=94-	=94-	=94-	=94-	=94-	=94-	=94-	=94-	=94-	=94-	=94-	=94-	=94-	=94-	=94-	=94-	=94-	=94-	=94-
!	!	!	!LO:N:vis=0	!	!LO:N:vis=0	!	!LO:N:vis=0	!	!LO:N:vis=0	!	!	!	!	!	!	!	!	!
1B-X	.	.	0.r	.	0.r	.	0.r	.	0.r	.	2.B-X\	-tu-	2.f\	-tu-	2.b-X\	-tu-	2.dd\	-tu-
.	.	.	.	.	.	.	.	.	.	.	4B-\	-r(us)	4f\	-rus	4b-\	-rus	4dd\	-rus
!LO:TX:t=P:problem:kreska pseudotaktowa	!	!	!	!	!	!	!	!	!	!	!	!	!	!	!	!	!	!
2F\	.	.	.	.	.	.	.	.	.	.	4F/	eſt	4f\	eſt	4a\	eſt	4ccny\	eſt
.	.	.	.	.	.	.	.	.	.	.	4F/	cum	4f\	[cum]	4a\	cu(m)	4cc\	cum
=95-	=95-	=95-	=95-	=95-	=95-	=95-	=95-	=95-	=95-	=95-	=95-	=95-	=95-	=95-	=95-	=95-	=95-	=95-
2c\	.	.	.	.	.	.	.	.	.	.	2c\	glo-	2gny\	glo-	2cc\	glo-	2ee\	glo-
2c\	.	.	.	.	.	.	.	.	.	.	4c\	-ri-	4g\	-ri-	4cc\	-ri-	4ee\	-ri-
.	.	.	.	.	.	.	.	.	.	.	4c\	-a	4g\	-a	4cc\	-a	4ee\	-a
4d\	.	.	.	.	.	.	.	.	.	.	4d\	iu-	4f\	iu-	4a\	ju-	4dd\	iu-
4G\	.	.	.	.	.	.	.	.	.	.	4G/	-di-	4g\	-di-	4b-X\	-di-	4dd\	-di-
=96-	=96-	=96-	=96-	=96-	=96-	=96-	=96-	=96-	=96-	=96-	=96-	=96-	=96-	=96-	=96-	=96-	=96-	=96-
!	!	!	!	!	!	!	!	!	!	!	!	!	!	!	!	!	!LO:SIC:v:s=1cc#	!
1A	.	.	1.r	.	1.r	.	1.r	.	1.r	.	1A	-ca-	1e	-ca-	1a	-ca-	1cc	-ca-
!LO:TX:t=P:problem:kreska pseudotaktowa	!	!	!	!	!	!	!	!	!	!	!	!	!	!	!	!	!	!
2D/	.	.	.	.	.	.	.	.	.	.	2D/	-re	2d\	-re	2a\	-re	2dd\	-re
!	!	!	!	!	!	!	!	!	!	!	!	!	!	!	!	!	!LO:LB:g=original	!
=97-	=97-	=97-	=97-	=97-	=97-	=97-	=97-	=97-	=97-	=97-	=97-	=97-	=97-	=97-	=97-	=97-	=97-	=97-
2BB-X/	.	.	2BB-X/	Vi-	2B-X\	vi-	2d\	Vi-	2f\	Vi-	2B-X\	vi-	2f\	Vi-	2b-X\	vi-	2dd\	Vi-
2BB-/	.	.	2BB-/	-vos	2B-\	-uos	2d\	-uos	2f\	-uos	2B-\	-uos	2f\	-uos	2f/	-vos	2dd\	-uos
!	!	!	!	!	!LO:N:acc=-	!	!	!	!	!	!	!	!	!	!	!	!	!
2FF/	.	.	2FF/	et	2cn\	et	2A\	et	2f\	et	2A\	et	2f\	et	2a\	et	2cc\	et
!	!	!	!LO:PB:g=original	!	!	!	!	!	!	!	!	!	!LO:LB:g=original	!	!	!	!	!
=98-	=98-	=98-	=98-	=98-	=98-	=98-	=98-	=98-	=98-	=98-	=98-	=98-	=98-	=98-	=98-	=98-	=98-	=98-
1C	.	.	2.C/	mor-	2.cny\	mor-	4cny\	mor-	2.g\	mor-	2.c\	mor-	2.e\	Mor-	2.g/	mor-	2.cc\	mor-
.	.	.	.	.	.	.	8Bny\L	.	.	.	.	.	.	.	.	.	.	.
.	.	.	.	.	.	.	8A\J	.	.	.	.	.	.	.	.	.	.	.
.	.	.	.	.	.	.	4G\	.	.	.	.	.	.	.	.	.	.	.
.	.	.	4C/	-tu-	4c\	-tu-	4c\	-tu-	4g\	-tu-	4C/	-tu-	4e\	-tu-	4g/	-tu-	4cc\	-tu-
!	!	!	!	!	!	!	!LO:LB:g=original	!	!	!	!	!	!	!	!	!	!	!
!	!	!	!	!	!	!	!LO:TX:t=P:problem:kreska pseudotaktowa	!	!	!	!	!	!	!	!	!	!	!
2FF/	.	.	2FF/	-os	2c\	-os	2A\	-os	2f\	-os	2F/	-os	2f\	-os	2a\	-os	2cc\	-os
!	!	!	!	!	!LO:LB:g=original	!	!	!	!	!	!	!	!	!	!	!	!	!
=99-	=99-	=99-	=99-	=99-	=99-	=99-	=99-	=99-	=99-	=99-	=99-	=99-	=99-	=99-	=99-	=99-	=99-	=99-
!	!	!	!	!	!	!	!	!	!	!	!	!	!	!	!LO:TX:t=P:problem:kreska pseudotaktowa	!	!	!
!	!	!	!	!	!	!	!	!	!	!	!LO:N:vis=0	!	!LO:N:vis=0	!	!LO:N:vis=0	!	!LO:N:vis=0	!
2.F\	.	.	2.F\	cu-	2.A/	cu-	2.c\	Cu-	2.f\	Cu-	0.r	.	0.r	.	0.r	.	0.r	.
!	!	!	!LO:SIC:v:s=4F\	!	!	!	!	!	!	!	!	!	!	!	!	!	!	!
4F\	.	.	4E\	-ius	4A/	-jus	4c\	-ius	4f\	-jus	.	.	.	.	.	.	.	.
2D\	.	.	4D/	reg-	4A/	reg-	4d\	reg-	4f\	Reg-	.	.	.	.	.	.	.	.
.	.	.	4D/	-ni	4A/	-ni	4d\	-ni	4f\	-ni	.	.	.	.	.	.	.	.
!	!	!	!	!	!	!	!	!	!LO:LB:g=original	!	!	!	!	!	!	!	!	!
=100-	=100-	=100-	=100-	=100-	=100-	=100-	=100-	=100-	=100-	=100-	=100-	=100-	=100-	=100-	=100-	=100-	=100-	=100-
2G\	.	.	2G\	non	2Bny\	non	2d\	Non	2g\	non	.	.	.	.	.	.	.	.
4G\	.	.	4G\	e-	4B\	e-	4d\	E-	4g\	e-	.	.	.	.	.	.	.	.
!LO:SIC:v:s=4B-\	!	!	!	!	!	!	!	!	!	!	!	!	!	!	!	!	!	!
4Bny\	.	.	4B-X\	-rit	4d\	-rit	4d\	-rit	4g\	-rit	.	.	.	.	.	.	.	.
!LO:TX:t=P:problem:kreska pseudotaktowa	!	!	!	!	!	!	!	!	!	!	!	!	!	!	!	!	!	!
!	!	!	!	!	!LO:SIC:v:s=2c#\	!	!	!	!	!	!	!	!	!	!	!	!	!
2A\	#	.	2A\	fi-	2c\	fi-	2e\	fi-	2a\	fi-	.	.	.	.	.	.	.	.
!	!	!	!	!	!	!	!	!	!	!	!	!	!	!	!LO:LB:g=original	!	!	!
=101-	=101-	=101-	=101-	=101-	=101-	=101-	=101-	=101-	=101-	=101-	=101-	=101-	=101-	=101-	=101-	=101-	=101-	=101-
!	!	!	!	!	!	!	!LO:SIC:v:s=1d	!	!LO:TX:t=P:problem:# below	!	!	!	!LO:SIC:v:s=4f#\	!	!	!	!	!
2D/	.	.	1D	-nis	1d	-nis	1d#X	-nis	1f#X	-nis	4d\	Et	4f\	Et	4a\	Et	4dd\	Et
!	!	!	!	!	!	!	!	!	!	!	!	!	!LO:SIC:v:s=4f#\	!	!	!	!	!
.	.	.	.	.	.	.	.	.	.	.	4d\	in	4f\	in	4a\	in	4dd\	in
*clefC4	*	*	*	*	*	*	*	*	*	*	*	*	*	*	*	*	*	*
!	!	!	!	!	!	!	!	!	!	!	!	!	!LO:SIC:v:s=4.f#\	!	!	!	!	!
2d\	.	.	.	.	.	.	.	.	.	.	4.d\	ſp(i-	4.f\	ſpi-	4.a\	ſpi-	4.dd\	ſpi-
!	!	!	!	!	!	!	!	!	!	!	!	!	!LO:SIC:v:s=8f#\	!	!	!	!	!
.	.	.	.	.	.	.	.	.	.	.	8d\	-ri-	8f\	-ri-	8a\	-ri-	8dd\	-ri-
2A\	.	.	2r	.	2r	.	2r	.	2r	.	2A\	-t)um	2e\	-tum	2a\	-tum	2cc#X\	-tum
=102-	=102-	=102-	=102-	=102-	=102-	=102-	=102-	=102-	=102-	=102-	=102-	=102-	=102-	=102-	=102-	=102-	=102-	=102-
!	!	!	!LO:N:vis=0	!	!LO:N:vis=0	!	!LO:N:vis=0	!	!LO:N:vis=0	!	!	!	!	!	!	!	!	!
4d\	.	.	0.r	.	0.r	.	0.r	.	0.r	.	4d\	ſ(an)-	4f\	ſan-	4a\	San-	4dd\	ſan-
4B\	.	.	.	.	.	.	.	.	.	.	4Bny\	-ctum	4g\	-ctum	4bny\	-ctu(m)	4dd\	-ctum
2c\	.	.	.	.	.	.	.	.	.	.	4.c\	D(o-	4.e\	D(o-	4.g/	D(o-	4.ccny	D(o-
.	.	.	.	.	.	.	.	.	.	.	8c\	-mi)-	8e\	-mi)-	8g/	-mi)-	8cc\	-mi)-
2G/	.	.	.	.	.	.	.	.	.	.	2G/	-num	2d\	-num	2g/	-nu(m)	2b\	-num
=103-	=103-	=103-	=103-	=103-	=103-	=103-	=103-	=103-	=103-	=103-	=103-	=103-	=103-	=103-	=103-	=103-	=103-	=103-
2c\	.	.	.	.	.	.	.	.	.	.	4.c\	et	4.e\	et	4.g/	et	4.cc\	et
.	.	.	.	.	.	.	.	.	.	.	8c\	Vi-	8e\	Vi-	8g/	vi-	8cc\	Vi-
!	!	!	!	!	!	!	!	!	!	!	!LO:LB:g=original	!	!	!	!	!	!	!
4c\	.	.	.	.	.	.	.	.	.	.	4c\	-ui-	4e\	-vi-	4g/	-vi-	4ee\	-ui-
4B\	6	.	.	.	.	.	.	.	.	.	4B\	-fi-	4g\	-fi-	4g/	-fi-	4dd\	-fi-
!	!	!	!	!	!	!	!	!	!	!	!LO:TX:t=P:problem:kreska pseudotaktowa	!	!	!	!	!	!	!
2A\	7	.	.	.	.	.	.	.	.	.	2A/	-can-	4g\	-can-	2a\	-can-	2cc\	-can-
!	!	!	!	!	!	!	!	!	!	!	!	!	!LO:SIC:v:s=4f#\	!	!	!	!	!
.	6\	.	.	.	.	.	.	.	.	.	.	.	4f\	.	.	.	.	.
!LO:LB:g=original	!	!	!	!	!	!	!	!	!	!	!	!	!	!	!	!	!	!
=104-	=104-	=104-	=104-	=104-	=104-	=104-	=104-	=104-	=104-	=104-	=104-	=104-	=104-	=104-	=104-	=104-	=104-	=104-
*clefF4	*	*	*	*	*	*	*	*	*	*	*	*	*	*	*	*	*	*
2.G\	.	.	2.G\	qui	2.B\	Qui	2.dny\	Qui	2.g\	Qui	1G	-tem	1g	-tem	1d	-tem	1b	-tem
4G\	.	.	4G\	ex	4B\	ex	4d\	ex	4g\	ex	.	.	.	.	.	.	.	.
2E\	.	.	4E\	Pa-	4c\	Pa-	4e\	Pa-	4g\	Pa-	2r	.	2r	.	2r	.	2r	.
.	.	.	4E\	-tre	4c\	-tre	4e\	-tre	4g\	-tre	.	.	.	.	.	.	.	.
=105-	=105-	=105-	=105-	=105-	=105-	=105-	=105-	=105-	=105-	=105-	=105-	=105-	=105-	=105-	=105-	=105-	=105-	=105-
!	!	!	!	!	!	!	!	!	!	!	!LO:N:vis=0	!	!LO:N:vis=0	!	!LO:N:vis=0	!	!LO:N:vis=0	!
2F\	.	.	2F\	Fi-	2A/	Fi-	2c\	Fi-	2fny\	fi-	0.r	.	0.r	.	0.r	.	0.r	.
4F\	.	.	4F\	-li-	4A/	-li-	4c\	-li-	4f\	-li-	.	.	.	.	.	.	.	.
4C/	.	.	4C/	-o-	4G/	-o-	4c\	-o-	4e\	-o-	.	.	.	.	.	.	.	.
2F\	.	.	2F\	-q(ue)	2A/	-q(ue)	4c\	-q(ue)	2f\	-q(ue)	.	.	.	.	.	.	.	.
.	.	.	.	.	.	.	4c\	pro-	.	.	.	.	.	.	.	.	.	.
=106-	=106-	=106-	=106-	=106-	=106-	=106-	=106-	=106-	=106-	=106-	=106-	=106-	=106-	=106-	=106-	=106-	=106-	=106-
2E\	6	.	2E\	pro-	2G/	pro-	1c	-ce-	2g\	pro-	.	.	.	.	.	.	.	.
*	*	*	*col	*	*	*	*	*	*	*	*	*	*	*	*	*	*	*
!LO:TX:t=P:problem:kreska pseudotaktowa	!	!	!	!	!	!	!	!	!	!	!	!	!	!	!	!	!	!
1D	7	.	1D	-ce-	2A/	-ce-	.	.	1f	-ce-	.	.	.	.	.	.	.	.
.	.	.	.	.	2F/	.	2B\	.	.	.	.	.	.	.	.	.	.	.
*	*	*	*Xcol	*	*	*	*	*	*	*	*	*	*	*	*	*	*	*
=107-	=107-	=107-	=107-	=107-	=107-	=107-	=107-	=107-	=107-	=107-	=107-	=107-	=107-	=107-	=107-	=107-	=107-	=107-
1C	.	.	1C	-dit	1G	-dit	1c	-dit	1e	-dit	2.c\	qui	2.e\	qui	2.g/	qui	2.cc\	Qui
.	.	.	.	.	.	.	.	.	.	.	4c\	cum	4e\	cum	4g/	cum	4cc\	cum
*clefC4	*	*	*	*	*	*	*	*	*	*	*	*	*	*	*	*	*	*
2A\	5	.	2r	.	2r	.	2r	.	2r	.	4A\	Pa-	4e\	Pa-	4a\	Pa-	4cc\	Pa-
.	.	.	.	.	.	.	.	.	.	.	4A\	-tre	4e\	-tre	8a\	-tre	4cc\	-tre
.	.	.	.	.	.	.	.	.	.	.	.	.	.	.	8a\	&	.	.
!	!	!	!	!	!	!	!	!	!	!	!	!	!	!	!	!	!LO:LB:g=original	!
=108-	=108-	=108-	=108-	=108-	=108-	=108-	=108-	=108-	=108-	=108-	=108-	=108-	=108-	=108-	=108-	=108-	=108-	=108-
2d\	.	.	1.r	.	1.r	.	1.r	.	1.r	.	2d\	et	2f\	et	1a	Fi-	2dd\	et
1B-X	76	.	.	.	.	.	.	.	.	.	2.B-X\	Fi-	2.d\	Fi-	.	.	2.dd\	Fi-
.	.	.	.	.	.	.	.	.	.	.	.	.	.	.	2g/	-li-	.	.
.	.	.	.	.	.	.	.	.	.	.	4B-\	-li-	4d\	-li-	.	.	4dd\	-li-
!	!	!	!	!	!	!	!	!	!	!	!	!	!LO:LB:g=original	!	!	!	!	!
=109-	=109-	=109-	=109-	=109-	=109-	=109-	=109-	=109-	=109-	=109-	=109-	=109-	=109-	=109-	=109-	=109-	=109-	=109-
2A\	#	.	2r	.	2r	.	2r	.	2r	.	1.A	-o	1e	-o	1a	-o	1cc#Xi	-o
*clefF4	*	*	*	*	*	*	*	*	*	*	*	*	*	*	*	*	*	*
!	!	!	!	!	!LO:LB:g=original	!	!	!	!	!	!	!	!	!	!	!	!	!
2AA/	.	.	2AA/	si-	2A/	ſi-	2c#X\	Si-	2e\	Si-	.	.	.	.	.	.	.	.
2AA/	.	.	2AA/	-mul	2A/	-mul	2c#\	-mul	2e\	-mul	.	.	2r	.	2r	.	2r	.
!	!	!	!	!	!	!	!LO:LB:g=original	!	!	!	!	!	!	!	!	!	!	!
=110-	=110-	=110-	=110-	=110-	=110-	=110-	=110-	=110-	=110-	=110-	=110-	=110-	=110-	=110-	=110-	=110-	=110-	=110-
*	*	*	*	*	*	*	*col	*	*	*	*	*	*	*	*	*	*	*
!	!	!	!	!	!	!	!	!	!	!	!	!	!	!	!LO:TX:t=P:problem:kreska pseudotaktowa	!	!	!
!	!	!	!	!	!	!	!	!	!	!	!LO:N:vis=0	!	!LO:N:vis=0	!	!LO:N:vis=0	!	!LO:N:vis=0	!
1D	.	.	1D	a-	1A	a-	1d	a-	1f	a-	0.r	.	0.r	.	0.r	.	0.r	.
2C/	6	.	2C/	-do-	2E/	-do-	1A\	-do-	2e\	-do-	.	.	.	.	.	.	.	.
!	!	!	!LO:LB:g=original	!	!	!	!	!	!	!	!	!	!	!	!	!	!	!
=111-	=111-	=111-	=111-	=111-	=111-	=111-	=111-	=111-	=111-	=111-	=111-	=111-	=111-	=111-	=111-	=111-	=111-	=111-
!	!	!	!	!	!	!	!	!	!LO:N:vis=1	!	!	!	!	!	!	!	!	!
1.BB-X	76	.	1.BB-X	-ra-	2F/	.	.	.	1.d	-ra-	.	.	.	.	.	.	.	.
.	.	.	.	.	1D	-ra-	1G	-ra-	.	.	.	.	.	.	.	.	.	.
*	*	*	*	*	*	*	*Xcol	*	*	*	*	*	*	*	*	*	*	*
!	!	!	!	!	!	!	!	!	!	!	!	!	!	!	!LO:LB:g=original	!	!	!
=112-	=112-	=112-	=112-	=112-	=112-	=112-	=112-	=112-	=112-	=112-	=112-	=112-	=112-	=112-	=112-	=112-	=112-	=112-
!	!	!	!	!	!	!	!	!	!LO:TX:t=P:problem:# below	!	!	!	!	!	!	!	!	!
!	!	!	!	!	!	!	!	!	!LO:N:vis=1	!	!	!	!	!	!	!	!	!
1AA	#	.	1.AA	-tur	1E	-tur	1.A	-tur	1c#X	-tur	2r	.	2r	.	2r	.	2r	.
.	.	.	.	.	.	.	.	.	.	.	2r	.	2r	.	2r	.	2r	.
*clefC4	*	*	*	*	*	*	*	*	*	*	*	*	*	*	*	*	*	*
!	!	!	!	!	!	!	!	!	!LO:TX:t=P:problem:brak 2r	!	!	!	!	!	!	!	!	!
2A\	.	.	.	.	2r	.	.	.	2ryy	.	2A/	et	2e\	et	2a\	et	2cc#X\i	et
=113-	=113-	=113-	=113-	=113-	=113-	=113-	=113-	=113-	=113-	=113-	=113-	=113-	=113-	=113-	=113-	=113-	=113-	=113-
!	!	!	!LO:N:vis=0	!	!LO:N:vis=0	!	!LO:N:vis=0	!	!LO:N:vis=0	!	!	!	!	!	!	!	!	!
1d	.	.	0.r	.	0.r	.	0.r	.	0.r	.	2.d\	Con-	2.f\	Con-	2.a\	con-	2.dd\	Con-
.	.	.	.	.	.	.	.	.	.	.	4d\	-glo-	4f\	-glo-	4a\	-glo-	4dd\	-glo-
2d\	.	.	.	.	.	.	.	.	.	.	2d\	-ri-	2f\	-ri-	4a\	-ri-	2dd\	-ri-
.	.	.	.	.	.	.	.	.	.	.	.	.	.	.	4a\	-fi-	.	.
=114-	=114-	=114-	=114-	=114-	=114-	=114-	=114-	=114-	=114-	=114-	=114-	=114-	=114-	=114-	=114-	=114-	=114-	=114-
2c\	6	.	.	.	.	.	.	.	.	.	2c\	-fi-	2e\	-fi-	1a	-ca-	2ee\	-fi-
1B-X	76	.	.	.	.	.	.	.	.	.	1B-X	-ca-	2f\	-ca-	.	.	1dd	-ca-
.	.	.	.	.	.	.	.	.	.	.	.	.	2d\	.	2g/	.	.	.
=115-	=115-	=115-	=115-	=115-	=115-	=115-	=115-	=115-	=115-	=115-	=115-	=115-	=115-	=115-	=115-	=115-	=115-	=115-
1.A	.	.	1.r	.	1.r	.	1.r	.	1.r	.	1.A	-tur	1.e	-tur	1.a	-tur	1.cc#Xi	-tur
!LO:PB:g=original	!	!	!	!	!	!	!	!	!LO:LB:g=original	!	!	!	!	!	!	!	!	!
=116-	=116-	=116-	=116-	=116-	=116-	=116-	=116-	=116-	=116-	=116-	=116-	=116-	=116-	=116-	=116-	=116-	=116-	=116-
*clefF4	*	*	*	*	*	*	*	*	*	*	*	*	*	*	*	*	*	*
!LO:TX:b:t=T.	!	!	!	!	!	!	!	!	!LO:SIC:v:s=1f#	!	!	!	!	!	!	!	!	!
1D	.	.	1D	qui	1A	qui	1d	Qui	1f	qui	1D	qui	1f#X	Qui	1a	qui	1dd	Qui
!	!	!	!	!	!	!	!	!	!LO:SIC:v:s=2f#\	!	!	!	!	!	!	!	!LO:SIC:v:s=2dd\	!
2D/	.	.	2D/	lo-	2A/	lo-	2d\	lo-	2f\	lo-	2D/	lo-	2f#\	lo-	2a\	lo-	2dd#\i	lo-
=117-	=117-	=117-	=117-	=117-	=117-	=117-	=117-	=117-	=117-	=117-	=117-	=117-	=117-	=117-	=117-	=117-	=117-	=117-
1GG	.	.	2.GG/	-cu-	2.G/	-cu-	2.B\	-cu-	2.d\	-cu-	2.G/	-cu-	2.g\	-cu-	2.b\	-cu-	2.ddny\	-cu-
.	.	.	4GG/	-tus	4G/	-tus	4B\	-tus	4d\	-tus	4G/	-tus	4g\	-tus	4b\	-t(us)	4dd\	-tus
2GG/	.	.	2GG/	est	2G/	eſt	2d\	eſt	2B/	eſt	2G/	eſt	2g\	eſt	2b\	est	2dd\	eſt
=118-	=118-	=118-	=118-	=118-	=118-	=118-	=118-	=118-	=118-	=118-	=118-	=118-	=118-	=118-	=118-	=118-	=118-	=118-
1C	.	.	1C	per	1G	per	2cny\	per	1e	per	1E	per	1g	per	1cc	per	1ee	per
.	.	.	.	.	.	.	4c\	Pro-	.	.	.	.	.	.	.	.	.	.
.	.	.	.	.	.	.	4B\	.	.	.	.	.	.	.	.	.	.	.
2AA/	.	.	2AA/	pro-	2c\	Pro-	4c\	.	2e\	Pro-	2A/	Pro-	2a\	Pro-	2ee\	Pro-	2ccny\	Pro-
.	.	.	.	.	.	.	4A\	.	.	.	.	.	.	.	.	.	.	.
=119-	=119-	=119-	=119-	=119-	=119-	=119-	=119-	=119-	=119-	=119-	=119-	=119-	=119-	=119-	=119-	=119-	=119-	=119-
1E	.	.	1E	-hre-	1e	-phe-	1B	-phe-	1e	-phe-	1E	-phe-	1g#X	-phae-	1ee	-phe-	1b	-phae-
!	!	!	!	!	!LO:TX:t=P:problem:# below	!	!	!	!	!	!	!	!	!	!	!	!LO:SIC:v:s=2cc#\	!
2AA/	.	.	2AA/	-tas	2c#X\	-tas	2A/	-tas	2e\	-tas	2A/	-t[as]	2a\	-tas	2ee,<\	-tas	2cc\	-tas
!	!	!	!	!	!	!	!	!	!	!	!LO:LB:g=original	!	!	!	!	!	!	!
=120-	=120-	=120-	=120-	=120-	=120-	=120-	=120-	=120-	=120-	=120-	=120-	=120-	=120-	=120-	=120-	=120-	=120-	=120-
*clefC4	*	*	*	*	*	*	*	*	*	*	*	*	*	*	*	*	*	*
!	!	!	!LO:N:vis=0	!	!	!	!LO:N:vis=0	!	!LO:N:vis=0	!	!	!	!	!	!	!	!	!
1A	#	.	0.r	.	1.r	.	0.r	.	0.r	.	2A/	Et	2e\	et	2a\	Et	2cc#\i	et
.	.	.	.	.	.	.	.	.	.	.	2A/	V-	2e\	V-	2a\	u-	2cc#\	V-
2A/	.	.	.	.	.	.	.	.	.	.	2A/	-nam	2e\	-nam	2a\	-na(m)	2cc#\	-nam
!	!	!	!	!	!	!	!	!	!	!	!	!	!	!	!	!	!LO:LB:g=original	!
=121-	=121-	=121-	=121-	=121-	=121-	=121-	=121-	=121-	=121-	=121-	=121-	=121-	=121-	=121-	=121-	=121-	=121-	=121-
2d\	.	.	.	.	1.r	.	.	.	.	.	2d\	ſan-	2f#X\i	ſan-	2a\	San-	2dd\	San-
4d\	.	.	.	.	.	.	.	.	.	.	4d\	-ctam	4f#\	-cta(m)	4a\	-cta(m)	4dd\	-ctam
4f\	.	.	.	.	.	.	.	.	.	.	4f\	Ca-	4a\	Ca-	4a\	Ca-	4dd\	Ca-
!	!	!	!	!	!	!	!	!	!	!	!	!	!LO:LB:g=original	!	!	!	!	!
2e\	#	.	.	.	.	.	.	.	.	.	4.e\	-tho-	4.g#X\	-tho-	4.b\	-tho-	4.ee\	-tho-
!	!	!	!	!	!	!	!	!	!	!	!	!	!	!	!LO:TX:t=P:problem:kreska pseudotaktowa	!	!	!
.	.	.	.	.	.	.	.	.	.	.	8e\	-li-	8g#\	-li-	8b\	-li-	8ee\	-li-
!	!	!	!	!	!	!	!	!	!	!	!	!	!	!	!LO:LB:g=original	!	!	!
=122-	=122-	=122-	=122-	=122-	=122-	=122-	=122-	=122-	=122-	=122-	=122-	=122-	=122-	=122-	=122-	=122-	=122-	=122-
*clefF4	*	*	*	*	*	*	*	*	*	*	*	*	*	*	*	*	*	*
!LO:TX:b:t=Qui locut(us)	!	!	!	!	!	!	!	!	!	!	!	!	!	!	!	!	!	!
2A\	.	.	2A\	et	2c#X\	Et	2e\	Et	2a\	Et	1A	-cam	1a	-cam	1cc#X	-cam	1ee	-cam
2A\	.	.	2A\	A-	2c#\	A-	2e\	A-	2a\	A-	.	.	.	.	.	.	.	.
2D/	.	.	2D/	-po-	2A\	-po-	2d\	-po-	2f\	-po-	2r	.	2r	.	2r	.	2r	.
!	!	!	!	!	!LO:LB:g=original	!	!	!	!	!	!	!	!	!	!	!	!	!
=123-	=123-	=123-	=123-	=123-	=123-	=123-	=123-	=123-	=123-	=123-	=123-	=123-	=123-	=123-	=123-	=123-	=123-	=123-
!	!	!	!	!	!LO:SIC:v:s=4.B-\	!	!	!	!	!	!	!	!	!	!	!	!	!
2.G\	.	.	4.G\	-sto-	4.B\	-sto-	4.d\	-ſto-	4.g\	-sto-	1.r	.	1.r	.	1.r	.	1.r	.
!	!	!	!	!	!LO:SIC:v:s=8B-\	!	!	!	!	!	!	!	!	!	!	!	!	!
.	.	.	8G\	-li-	8B\	-li-	8d\	-li-	8g\	-li-	.	.	.	.	.	.	.	.
!	!	!	!	!	!LO:SIC:v:s=4B-\	!	!	!	!	!	!	!	!	!	!	!	!	!
.	.	.	4G\	-cam	4B\	-cam	4d\	-cam	4g\	-cam	.	.	.	.	.	.	.	.
!	!	!	!LO:SIC:v:s=4B-\	!	!	!	!	!	!	!	!	!	!	!	!	!	!	!
4B-X\	.	.	4Bny\	Ec-	4d\	Ec-	4d\	Ec-	4f\	Ec-	.	.	.	.	.	.	.	.
!LO:TX:t=P:problem:kreska pseudotaktowa	!	!	!	!	!	!	!	!	!	!	!	!	!	!	!	!	!	!
2A\	.	.	4.A\	-cle-	4.c#X\	-cle-	4.e\	-cle-	4.a\	-cle-	.	.	.	.	.	.	.	.
.	.	.	8A\	-si-	8c#\	-si-	8e\	-ſi-	8a\	-si-	.	.	.	.	.	.	.	.
=124-	=124-	=124-	=124-	=124-	=124-	=124-	=124-	=124-	=124-	=124-	=124-	=124-	=124-	=124-	=124-	=124-	=124-	=124-
!	!	!	!	!	!	!	!	!	!LO:TX:t=P:problem:# below	!	!	!	!LO:SIC:v:s=2f#\	!	!	!	!	!
1D	.	.	1D	-am	1d	-am	1d	-am	1f#X	-am	2d\	Con-	2fny\	Con-	2a\	Con-	2dd\	Con-
.	.	.	.	.	.	.	.	.	.	.	4.d\	-fi-	4.f#\i	-fi-	4.a\	-fi-	4.dd\	-fi-
.	.	.	.	.	.	.	.	.	.	.	8d\	-te-	8f#\	-te-	8a\	-te-	8dd\	-te-
2G\	.	.	2r	.	2r	.	2r	.	2r	.	2G/	-or	2gny\	-or	2b\	-or	2dd\	-or
!	!	!	!	!	!	!	!LO:LB:g=original	!	!	!	!	!	!	!	!	!	!	!
=125-	=125-	=125-	=125-	=125-	=125-	=125-	=125-	=125-	=125-	=125-	=125-	=125-	=125-	=125-	=125-	=125-	=125-	=125-
2C/	.	.	1.r	.	1.r	.	1.r	.	1.r	.	2c\	V-	2e\	V-	2g/	u-	2ccny\	V-
4C/	.	.	.	.	.	.	.	.	.	.	4c\	-num	4e\	-num	4g/	-num	4cc\	-num
4BBny/	.	.	.	.	.	.	.	.	.	.	4Bny\	bap-	4g\	bap-	4g/	bap-	4dd\	bap-
!LO:TX:t=P:problem:kreska pseudotaktowa	!	!	!	!	!	!	!	!	!	!	!	!	!	!	!	!	!	!
2D/	#	.	.	.	.	.	.	.	.	.	2d\	-tiz-	2f#X\	-tiz-	2a\	-tiſ-	2dd\	-tiz-
=126-	=126-	=126-	=126-	=126-	=126-	=126-	=126-	=126-	=126-	=126-	=126-	=126-	=126-	=126-	=126-	=126-	=126-	=126-
1G	.	.	4.G\	In	4.B\	in	4.d\	in	4.g\	In	1G	-ma	1g	-ma	1b	-ma	1dd	-ma
.	.	.	8G\	re-	8B\	re-	8d\	re-	8g\	re-	.	.	.	.	.	.	.	.
.	.	.	4G\	-miſ-	4B\	-miſ-	4d\	-miſ-	4g\	-miſ-	.	.	.	.	.	.	.	.
.	.	.	4G\	-si-	4B\	-si-	4d\	-si-	4g\	-si-	.	.	.	.	.	.	.	.
!	!	!	!LO:SIC:v:s=4F\	!	!	!	!	!	!LO:LB:g=original	!	!	!	!	!	!	!	!	!
2F\	.	.	4G\	-o-	4cny\	-o-	4A\	-o-	4a\	-o-	2r	.	2r	.	2r	.	2r	.
!	!	!	!LO:SIC:v:s=4F\	!	!	!	!	!	!	!	!	!	!	!	!	!	!	!
.	.	.	4G\	-nem	4c\	-nem	4A\	-nem	4a\	-nem	.	.	.	.	.	.	.	.
!	!	!	!LO:LB:g=original	!	!	!	!	!	!	!	!	!	!	!	!	!	!	!
=127-	=127-	=127-	=127-	=127-	=127-	=127-	=127-	=127-	=127-	=127-	=127-	=127-	=127-	=127-	=127-	=127-	=127-	=127-
2.E\	.	.	2.E\	pec-	2.e\	pec-	2.B\	pec-	2.g\	pec-	1.r	.	1.r	.	1.r	.	1.r	.
4C/	.	.	4C/	-ca-	4e\	-ca-	4c\	-ca-	4g\	-ca-	.	.	.	.	.	.	.	.
2G\	.	.	2G\	-to-	2d\	-to-	2B\	-to-	2g\	-to-	.	.	.	.	.	.	.	.
!LO:LB:g=original	!	!	!	!	!	!	!	!	!	!	!	!	!	!	!	!	!	!
=128-	=128-	=128-	=128-	=128-	=128-	=128-	=128-	=128-	=128-	=128-	=128-	=128-	=128-	=128-	=128-	=128-	=128-	=128-
2C/	.	.	1C	-rum	1c	-rum	1c	-rum	1.e	-rum	2.c\	Et	2.g\	et	2.ccny\	et	2.ee\	et
2c\	.	.	.	.	.	.	.	.	.	.	.	.	.	.	.	.	.	.
.	.	.	.	.	.	.	.	.	.	.	4c\	ex-	4g\	ex-	4cc\	ex-	4ee\	ex-
2F\	.	.	2r	.	2r	.	2r	.	.	.	4F/	-pec-	4a\	-pec-	4cc\	-pec-	4ff\	-pec-
.	.	.	.	.	.	.	.	.	.	.	4F/	-to	4a\	-to	4cc\	-to	4ff\	-to
=129-	=129-	=129-	=129-	=129-	=129-	=129-	=129-	=129-	=129-	=129-	=129-	=129-	=129-	=129-	=129-	=129-	=129-	=129-
!	!	!	!LO:N:vis=0	!	!LO:N:vis=0	!	!LO:N:vis=0	!	!LO:N:vis=0	!	!	!	!	!	!	!	!	!
1c	.	.	0.r	.	0.r	.	0.r	.	0.r	.	4c\	re-	4g\	re-	4cc\	re-	4ee\	re-
.	.	.	.	.	.	.	.	.	.	.	4c\	-ſur-	4g\	-ſur-	4cc\	-ſur-	4ee\	-ſur-
.	.	.	.	.	.	.	.	.	.	.	4c\	-rec-	4g\	-rec-	4cc\	-rec-	4ee\	-rec-
.	.	.	.	.	.	.	.	.	.	.	4c\	-ti-	4g\	-ti-	4cc\	-ti-	4ee\	-ti-
!LO:TX:t=P:problem:kreska pseudotaktowa	!	!	!	!	!	!	!	!	!	!	!	!	!	!	!	!	!	!
2G\	.	.	.	.	.	.	.	.	.	.	4G/	-o-	4g\	-o-	4b\	-o-	4dd\	-o-
.	.	.	.	.	.	.	.	.	.	.	4G/	-nem	4g\	-nem	4b\	-ne(m)	4dd\	-nem
!	!	!	!	!	!	!	!	!	!	!	!LO:LB:g=original	!	!	!	!	!	!	!
=130-	=130-	=130-	=130-	=130-	=130-	=130-	=130-	=130-	=130-	=130-	=130-	=130-	=130-	=130-	=130-	=130-	=130-	=130-
4A\	.	.	.	.	.	.	.	.	.	.	4A/	mor-	4e\	Mor-	4a\	mor-	4cc\	Mor-
4C/	.	.	.	.	.	.	.	.	.	.	4C/	-tu-	4e\	-tu-	4a\	-tu-	4cc\	-tu-
2D\	.	.	.	.	.	.	.	.	.	.	2D/	-o-	2fny\	-o-	(2a\	-o-	1b	-o-
2E\	.	.	.	.	.	.	.	.	.	.	2E/	.	2e\	.	2g#X/)	.	.	.
!	!	!	!	!	!	!	!	!	!	!	!	!	!LO:LB:g=original	!	!	!	!LO:LB:g=original	!
=131-	=131-	=131-	=131-	=131-	=131-	=131-	=131-	=131-	=131-	=131-	=131-	=131-	=131-	=131-	=131-	=131-	=131-	=131-
!LO:TX:a:t=a	!	!	!	!	!	!	!	!	!	!	!	!	!	!	!	!	!	!
1AA	.	.	2r	.	2r	.	2r	.	2r	.	1A	-rum	1e	-rum	1a	-rum	1a	-rum
!	!	!	!LO:TX:t=P:problem:brak 2r	!	!	!	!	!	!	!	!	!	!	!	!	!	!	!
.	.	.	2ryy	.	2r	.	2r	.	2r	.	.	.	.	.	.	.	.	.
!LO:TX:t=P:problem:kreska pseudotaktowa	!	!	!	!	!	!	!	!	!	!	!	!	!	!	!LO:TX:t=P:problem:kreska pseudotaktowa	!	!	!
2FF/	.	.	2FF/	et	2F/	Et	2A\	et	2cny\	Et	2F/	et	2a\	et	2cc\	Et	2ff\	et
!	!	!	!	!	!	!	!	!	!	!	!	!	!	!	!LO:LB:g=original	!	!	!
=132-	=132-	=132-	=132-	=132-	=132-	=132-	=132-	=132-	=132-	=132-	=132-	=132-	=132-	=132-	=132-	=132-	=132-	=132-
2C/	.	.	2C/	Vi-	2G/	ui-	2c\	Vi-	2e\	ui-	2C/	vi-	2g\	Vi-	2cc\	vi-	2ee\	Vi-
2C/	.	.	2C/	-tam	2G/	-tam	2G/	-tam	2c\	-tam	2C/	-tam	2g\	-tam	2cc\	-ta(m)	2ee\	-tam
2GG/	.	.	2GG/	Ven-	2B\	uen-	2G/	Ven-	2d\	Ven-	2G/	ven-	2g\	Ven-	2b\	ven-	2dd\	VEn-
=133-	=133-	=133-	=133-	=133-	=133-	=133-	=133-	=133-	=133-	=133-	=133-	=133-	=133-	=133-	=133-	=133-	=133-	=133-
*	*	*	*	*	*	*	*	*	*	*	*	*	*col	*	*	*	*	*
1D	.	.	1D	-tu-	1d	-tu-	1A	-tu-	1d	-tu-	1D	-tu-	1f#X	-tu-	1a	-tu-	1dd	-tu-
!LO:TX:t=P:problem:kreska pseudotaktowa	!	!	!	!	!LO:LB:g=original	!	!	!	!	!	!	!	!	!	!	!	!	!
2GG/	.	.	2GG/	-ri	2B\	-ri	2G/	-ri	2d\	-ri	2G/	-ri	1g	-ri	2b\	-ri	2dd\	-ri
=134-	=134-	=134-	=134-	=134-	=134-	=134-	=134-	=134-	=134-	=134-	=134-	=134-	=134-	=134-	=134-	=134-	=134-	=134-
1.D	43	.	1D	sae-	4d\	Sae-	1A	ſae-	1d	Sae-	1D	ſae-	.	.	1a	Sae-	1dd	ſae-
.	.	.	.	.	8c\L	.	.	.	.	.	.	.	.	.	.	.	.	.
.	.	.	.	.	8B\J	.	.	.	.	.	.	.	.	.	.	.	.	.
*	*	*	*	*	*	*	*	*	*	*	*	*	*Xcol	*	*	*	*	*
.	.	.	.	.	2.A/	-cu-	.	.	.	.	.	.	2.f#X\	ſae-	.	.	.	.
.	.	.	2D/	-cu-	.	.	2A/	-cu-	2d\	-cu-	2D/	-cu-	.	.	2a\	-cu-	2dd\	-cu-
.	.	.	.	.	4D/	.	.	.	.	.	.	.	4f#\	-cu-	.	.	.	.
=135-	=135-	=135-	=135-	=135-	=135-	=135-	=135-	=135-	=135-	=135-	=135-	=135-	=135-	=135-	=135-	=135-	=135-	=135-
1GG	.	.	1GG	-li	1D	-li	1.B	-li	1d	-li	1G	-li	1.g	-li	1.gny	-li	2b\	-li
.	.	.	.	.	.	.	.	.	.	.	.	.	.	.	.	.	2.b\	A-
*clefC4	*	*	*	*	*	*	*	*	*	*	*	*	*	*	*	*	*	*
!LO:TX:b:t=Amen	!	!	!	!	!	!	!	!	!	!	!	!	!	!	!	!	!	!
2.Bny\	6	.	2r	.	2r	.	.	.	2r	.	2.B\	A-	.	.	.	.	.	.
.	.	.	.	.	.	.	.	.	.	.	.	.	.	.	.	.	4cc\	.
=136-	=136-	=136-	=136-	=136-	=136-	=136-	=136-	=136-	=136-	=136-	=136-	=136-	=136-	=136-	=136-	=136-	=136-	=136-
!	!	!	!	!	!LO:N:vis=0	!	!LO:N:vis=0	!	!LO:TX:t=P:problem:wykreślony fragment	!	!	!	!	!	!	!	!	!
.	.	.	1.r	.	0.r	.	0.r	.	1.r	.	.	.	2.d\	A-	2r	.	2dd\	.
4c\	.	.	.	.	.	.	.	.	.	.	4c\	.	.	.	.	.	.	.
2d\	.	.	.	.	.	.	.	.	.	.	2d\	.	.	.	2r	.	2.a\	.
.	.	.	.	.	.	.	.	.	.	.	.	.	4e\	.	.	.	.	.
!LO:TX:t=P:problem:kreska pseudotaktowa	!	!	!	!	!	!	!	!	!	!	!	!	!	!	!	!	!	!
2A\	6	.	.	.	.	.	.	.	.	.	2.A\	.	2fny\	.	2.cc\	A-	.	.
.	.	.	.	.	.	.	.	.	.	.	.	.	.	.	.	.	4b\	.
!	!	!	!	!	!	!	!	!	!LO:LB:g=original	!	!	!	!	!	!	!	!	!
=137-	=137-	=137-	=137-	=137-	=137-	=137-	=137-	=137-	=137-	=137-	=137-	=137-	=137-	=137-	=137-	=137-	=137-	=137-
2A\	.	.	2r	.	.	.	.	.	2.e\	A-	.	.	2c/	.	.	.	2cc\	.
.	.	.	.	.	.	.	.	.	.	.	4B\	.	.	.	4dd\	.	.	.
*clefF4	*	*	*	*	*	*	*	*	*	*	*	*	*	*	*	*	*	*
2.E\	6	.	2.E\	A-	.	.	.	.	.	.	2c\	.	1e	.	2ee\	.	2.g\	.
.	.	.	.	.	.	.	.	.	4fny\	.	.	.	.	.	.	.	.	.
.	.	.	.	.	.	.	.	.	2g\	.	2.G/	.	.	.	2.b\	.	.	.
!LO:TX:t=P:problem:kreska pseudotaktowa	!	!	!	!	!	!	!	!	!	!	!	!	!	!	!	!	!	!
4F\	.	.	4F\	.	.	.	.	.	.	.	.	.	.	.	.	.	4a\	.
=138-	=138-	=138-	=138-	=138-	=138-	=138-	=138-	=138-	=138-	=138-	=138-	=138-	=138-	=138-	=138-	=138-	=138-	=138-
2G\	.	.	2G\	.	2.G/	A-	2.B\	A-	1.d	-men	.	.	2d\	-men	.	.	1b	.
.	.	.	.	.	.	.	.	.	.	.	4A/	.	.	.	4cc\	.	.	.
2.BB/	6	.	2.BBny/	.	.	.	.	.	.	.	2B\	.	2r	.	4dd\	.	.	.
.	.	.	.	.	4A/	.	4c\	.	.	.	.	.	.	.	4cc\	.	.	.
.	.	.	.	.	4B\	.	2d\	.	.	.	2G/	.	2.d\	A-	2b\	.	2b\	-men
4C/	.	.	4C/	.	4G/	.	.	.	.	.	.	.	.	.	.	.	.	.
!	!	!	!	!	!	!	!LO:LB:g=original	!	!	!	!	!	!	!	!	!	!	!
=139-	=139-	=139-	=139-	=139-	=139-	=139-	=139-	=139-	=139-	=139-	=139-	=139-	=139-	=139-	=139-	=139-	=139-	=139-
2D/	.	.	2D/	.	2F/	.	2.A\	.	2r	.	2D/	.	.	.	1.a	-men	2r	.
.	.	.	.	.	.	.	.	.	.	.	.	.	4e\	.	.	.	.	.
2.AA/	.	.	2.AA/	.	2E/	.	.	.	2.e\	A-	1A	.	4f\	.	.	.	2.cc\	A-
.	.	.	.	.	.	.	4B\	.	.	.	.	.	4g\	.	.	.	.	.
.	.	.	.	.	2A/	-men	2c\	.	.	.	.	.	2a\	.	.	.	.	.
4BB/	.	.	4BB/	.	.	.	.	.	4d\	.	.	.	.	.	.	.	4dd\	.
!LO:LB:g=original	!	!	!	!	!	!	!	!	!	!	!	!	!	!	!	!	!	!
=140-	=140-	=140-	=140-	=140-	=140-	=140-	=140-	=140-	=140-	=140-	=140-	=140-	=140-	=140-	=140-	=140-	=140-	=140-
2C/	.	.	2C/	.	2r	.	2.G/	.	2c\	.	2E/	-men	2.e\	.	1.r	.	2ee\	.
2.GG/	.	.	2.GG/	.	2.d\	A-	.	.	2d\	-men	2r	.	.	.	.	.	2.b\	.
.	.	.	.	.	.	.	4A/	.	.	.	.	.	4f\	.	.	.	.	.
.	.	.	.	.	.	.	2B\	-men	2r	.	2r	.	2g\	-men	.	.	.	.
4AA/	.	.	4AA/	.	4c\	.	.	.	.	.	.	.	.	.	.	.	4cc\	.
!	!	!	!	!	!	!	!	!	!	!	!	!	!LO:LB:g=original	!	!	!	!LO:LB:g=original	!
=141-	=141-	=141-	=141-	=141-	=141-	=141-	=141-	=141-	=141-	=141-	=141-	=141-	=141-	=141-	=141-	=141-	=141-	=141-
*	*	*	*	*	*	*	*	*	*	*ij	*	*ij	*	*ij	*	*	*	*
2BB-X/	.	.	2BB-X/	.	2B-X\	.	1.r	.	2.f\	A-	2r	.	2.d\	A-	2dd\	A-	2dd\	.
2.FF/	.	.	2.FF/	.	1A	-men	.	.	.	.	2r	.	.	.	2.a\	.	2.cc\	.
.	.	.	.	.	.	.	.	.	4g\	.	.	.	4e\	.	.	.	.	.
.	.	.	.	.	.	.	.	.	2a\	.	2.A/	A-	2f\	.	.	.	.	.
4GG/	.	.	4GG/	.	.	.	.	.	.	.	.	.	.	.	4b\	.	4b\	.
=142-	=142-	=142-	=142-	=142-	=142-	=142-	=142-	=142-	=142-	=142-	=142-	=142-	=142-	=142-	=142-	=142-	=142-	=142-
1AA	.	.	1AA	.	2.A/	A-	4e\	A-	1e	-men	.	.	2f\	.	4cc#X\	.	1a	.
.	.	.	.	.	.	.	4d\	.	.	.	4B\	.	.	.	4dd\	.	.	.
!	!	!	!	!	!	!	!	!	!	!	!LO:LB:g=original	!	!	!	!	!	!	!
.	.	.	.	.	.	.	2c#X\i	.	.	.	2c#X\	.	1e	.	2ee\	.	.	.
.	.	.	.	.	4G/	.	.	.	.	.	.	.	.	.	.	.	.	.
!	!	!	!LO:LB:g=original	!	!	!	!	!	!	!	!	!	!	!	!	!	!	!
2DD/	.	.	2DD/	-men	1F	.	2.A\	.	2.a\	A-	2d\	.	.	.	2ff\	.	2a\	.
=143-	=143-	=143-	=143-	=143-	=143-	=143-	=143-	=143-	=143-	=143-	=143-	=143-	=143-	=143-	=143-	=143-	=143-	=143-
!	!	!	!	!	!	!	!	!	!	!	!LO:N:vis=1	!	!LO:N:vis=1.	!	!	!	!	!
1.AA	4#r	.	1.AA	A-	.	.	.	.	.	.	1.A	.	1d	.	1.ee	.	1.a	.
.	.	.	.	.	.	.	4B\	.	8g\L	.	.	.	.	.	.	.	.	.
.	.	.	.	.	.	.	.	.	8f\J	.	.	.	.	.	.	.	.	.
!	!	!	!	!	!	!	!LO:SIC:v:s=4c#\	!	!	!	!	!	!	!	!	!	!	!
.	.	.	.	.	1A	.	4cny\	.	1e	.	.	.	.	.	.	.	.	.
.	.	.	.	.	.	.	4d\	.	.	.	.	.	.	.	.	.	.	.
!	!	!	!	!	!	!	!	!	!	!	!	!	!LO:N:vis=1	!	!	!	!	!
.	.	.	.	.	.	.	4e\	.	.	.	.	.	2c#X	.	.	.	.	.
.	.	.	.	.	.	.	2A\	.	.	.	.	.	.	.	.	.	.	.
=144-	=144-	=144-	=144-	=144-	=144-	=144-	=144-	=144-	=144-	=144-	=144-	=144-	=144-	=144-	=144-	=144-	=144-	=144-
!	!	!	!	!	!LO:SIC:v:s=[1.A;	!	!	!	!	!	!	!	!	!	!	!	!	!
[1.Dl	.	.	[1.D;;l	-men	[1.c;;l	-men	.	.	[1.fl	-men	[1.Dl	-men	[1.dl	-men	[1.dd;<l	men.	[1.al	-men
.	.	.	.	.	.	.	8B\L	.	.	.	.	.	.	.	.	.	.	.
!	!	!	!	!	!	!	!LO:SIC:v:s=8c#\J	!	!	!	!	!	!	!	!	!	!	!
.	.	.	.	.	.	.	8c\J	.	.	.	.	.	.	.	.	.	.	.
.	.	.	.	.	.	.	1d	.	.	.	.	.	.	.	.	.	.	.
*	*	*	*	*	*	*	*	*	*	*Xij	*	*Xij	*	*Xij	*	*	*	*
=145-	=145-	=145-	=145-	=145-	=145-	=145-	=145-	=145-	=145-	=145-	=145-	=145-	=145-	=145-	=145-	=145-	=145-	=145-
!	!	!	!	!	!LO:TX:t=P:problem:znak repetycji na końcu	!	!LO:N:vis=0	!	!	!	!	!	!	!	!	!	!	!
!	!	!	!	!	!LO:SIC:v:s=0.A]	!	!	!	!	!	!	!	!	!	!	!	!	!
0.D]	.	.	0.D]	.	0.c]	.	0.d	-men	0.f]	.	0.D]	.	0.d]	.	0.dd]	.	0.a]	.
=-	=-	=-	=-	=-	=-	=-	=-	=-	=-	=-	=-	=-	=-	=-	=-	=-	=-	=-
*-	*-	*-	*-	*-	*-	*-	*-	*-	*-	*-	*-	*-	*-	*-	*-	*-	*-	*-
!!!system-decoration: [(s1,s2,s3,s4)][(s5,s6,s7,s8)]s9
!!!RDF**kern: > = above
!!!RDF**kern: < = below
!!!RDF**kern: N = linked
!!!RDF**kern: l = terminal long
!!!RDF**kern: i = editorial accidental
!!!ENC: Filip Voros
!!!EED: Katarzyna Serwa
!!!END: 2024-06-25
!!!EEV: 2025-03-26
